HK-33-32/Control_Final/logs/robot_metrics_06_task_space_with_mass.csv
time,pos_x,pos_y,pos_z,euler_roll,euler_pitch,euler_yaw,task_vel_1,task_vel_2,task_vel_3,task_vel_4,task_vel_5,task_vel_6,task_acc_1,task_acc_2,task_acc_3,task_acc_4,task_acc_5,task_acc_6,joint_pos_1,joint_pos_2,joint_pos_3,joint_pos_4,joint_pos_5,joint_pos_6,joint_vel_1,joint_vel_2,joint_vel_3,joint_vel_4,joint_vel_5,joint_vel_6,joint_acc_1,joint_acc_2,joint_acc_3,joint_acc_4,joint_acc_5,joint_acc_6,desired_pos_x,desired_pos_y,desired_pos_z,desired_euler_roll,desired_euler_pitch,desired_euler_yaw
0,0.49199873274356454,0.13399970614359175,0.5080003673187226,-1.5707926535897927,-3.6732051031940216e-06,-1.570796326808389,0.0,0.0,0.0,0.0,0.0,0.0,10.83522792328445,-8.900274702198603,-6.335438212925899,120.91995761497658,-120.91951345198693,120.9204017795978,0.0,-1.5708,1.5708,-1.5708,-1.5708,0.0,0.0,0.0,0.0,0.0,0.0,0.0,-37.751962966616674,-9.169617193177343,56.178376189509756,-167.92885528282804,120.92054045030089,-158.67192058240923,0.5,0.0,0.5,0.0,-0.0,0.0
0.002,0.4920112611309384,0.13399565702413796,0.5079601161579326,-1.5706192804152876,0.000732012784190772,-1.5708913158248903,0.006263073875243278,-0.0020248180058983715,-0.020114355095300157,0.3678319085952857,-0.08673359303156687,-0.04749419865919639,10.70378465979971,-8.866806604235505,-5.926410403349998,113.49187998866802,-119.21384526892771,121.83130576236321,-0.00012785388919950752,-1.5708434579526716,1.5709904178879146,-1.5711203090995864,-1.5700643082039678,-3.273526726040553e-05,-0.06392694459975376,-0.021728976335762488,0.09520894395733902,-0.16015454979324875,0.36784589801611994,-0.016367633630202764,-36.48061262484744,-8.723677688032229,54.24132315289678,-164.601106803574,113.53514398706308,-158.29186501774302,0.5,0.0,0.5,0.0,-0.0,0.0
0.004,0.49203574749194107,0.1339872600997157,0.5078803869724102,-1.5702845520977098,0.002162984819650937,-1.5710795630875993,0.012238761641647528,-0.004199495994964766,-0.03982214744817191,0.7154283018726008,-0.16761031927375,-0.09424625398756396,10.572141636298769,-8.837034617220363,-5.519008432638918,106.40098481340856,-117.65312245254775,122.69068747220291,-0.00037759847374261863,-1.5709275179665738,1.5713636510501676,-1.5717440316663405,-1.5686332939758456,-9.325542685052854e-05,-0.12487229227155555,-0.04203000695115973,0.18661658112649399,-0.31186128337698993,0.7155071140611113,-0.0302600797950615,-35.2756970925454,-8.29580217183352,52.34915871469923,-161.32472458405013,106.52620008002718,-157.91227884453207,0.5,0.0,0.5,0.0,-0.0,0.0
0.006,0.492071616198364,0.1339742300398102,0.5077619782836951,-1.5698003321844574,0.004250904951263568,-1.5713583113258647,0.017924520251373408,-0.00651740119198399,-0.05911403818729883,1.0438028012167322,-0.2427849158352248,-0.13989827209140687,10.440564478910463,-8.810753554741172,-5.113650588610664,99.63077075515436,-116.23302763177878,123.49348674274286,-0.0007435761099803146,-1.571049414249305,1.5719124085939025,-1.5726545528000575,-1.5665452431563565,-0.0001773592265641666,-0.18298881811884798,-0.060948141365550074,0.2743787718674327,-0.4552605668585522,1.0440254097445862,-0.04205189985681902,-34.13373147935086,-7.885936596582436,50.50044673148558,-158.10375427372006,99.87399749454589,-157.5293218988489,0.5,0.0,0.5,0.0,-0.0,0.0
0.008,0.4921182886017653,0.13395629294168007,0.5076057078857448,-1.569178303678046,0.006959365599000122,-1.5717240065611744,0.023318880709179615,-0.00897290427152049,-0.0779833451738811,1.3539069460055122,-0.3124115403192584,-0.18417101274391523,10.309279993846205,-8.787736857852883,-4.710697595523442,93.16583937477098,-114.9492427425551,124.23603726881497,-0.0012204156458335046,-1.5712064713286962,1.5726296881677606,-1.5738355685813303,-1.563836496939362,-0.00028148199513222227,-0.23841976792659503,-0.07852853969560153,0.35863978692906545,-0.5905078906364597,1.3543731084971593,-0.05206138428402782,-33.05138699340573,-7.494005452019342,48.69392709562097,-154.94171725911215,93.5601142678234,-157.1402398939017,0.5,0.0,0.5,0.0,-0.0,0.0
0.01,0.49217518487962575,0.133933184497279,0.5074124075069644,-1.5684299403715385,0.010253763988014253,-1.5721724970211097,0.028421286082011925,-0.011561313788143734,-0.09642570115229994,1.6466332526672494,-0.37664491002684897,-0.22685210328482983,10.178481430617637,-8.767739291369152,-4.310458935724501,86.99183628605812,-113.79743836272233,124.91585223072569,-0.0018030142299425595,-1.571396103819877,1.573508755219508,-1.5752711119213674,-1.5605415823214481,-0.0004026000571640374,-0.2912992920545274,-0.09481624559034478,0.43953352587369593,-0.717771670018554,1.6474573089569544,-0.06055903101590759,-32.02549045559605,-7.119915321200479,46.928491161108234,-151.8416487545539,87.56734600539644,-156.7431758292111,0.5,0.0,0.5,0.0,-0.0,0.0
0.012,0.49224172559372675,0.13390464827560894,0.5071829181492172,-1.5675664779134537,0.014101182943302426,-1.572699204668168,0.03323195652667348,-0.014278804512779159,-0.11443875595381608,1.9228182704881391,-0.435640883655632,-0.26778585713336583,10.048333033598706,-8.750499584532168,-3.913198405902053,81.09539285403338,-112.77327199935966,125.53143987391292,-0.0024865200435964857,-1.5716158158545974,1.574543124425405,-1.5769455743339358,-1.5566933345494036,-0.0005381495418311038,-0.34175290682696297,-0.10985601736026321,0.5171846029484989,-0.8372312062841585,1.9241238860223038,-0.06777474233353316,-31.053022336946313,-6.763557437565964,45.20315991648146,-148.80613418929326,81.87963720159314,-156.33700987023693,0.5,0.0,0.5,0.0,-0.0,0.0
0.014,0.49231733301084274,0.13387043413449295,0.5069180860177329,-1.5665988862570417,0.01847027819342273,-1.573299272430829,0.037751776849511184,-0.017122342394918524,-0.13202191719389456,2.183245599400455,-0.4895566435370619,-0.3068644861378842,9.918973978500416,-8.735742983258653,-3.51913900383218,75.46406903661703,-111.87239249510746,126.08214500051575,-0.003266315984700977,-1.571863200264554,1.5757265430516478,-1.5788437239536832,-1.5523230119726532,-0.0006859574102795773,-0.38989797055224573,-0.12369220497834252,0.5917093131214479,-0.949074809873764,2.185161288375159,-0.07390393422423674,-30.131113669479255,-6.424809494945635,43.517064720292176,-145.83734386532882,76.4820155328833,-155.9212236038527,0.5,0.0,0.5,0.0,-0.0,0.0
0.016,0.49240143222731203,0.13383029677012778,0.5066187589665534,-1.5655378446192436,0.023331172212373907,-1.5739676898830501,0.0419822028405127,-0.020089608212217946,-0.1491761245352119,2.428648844370666,-0.538550599579504,-0.34402052182195314,9.790521776962928,-8.72318369179336,-3.128467230247839,70.08629779593633,-111.09044841068246,126.568012838758,-0.0041380043133542425,-1.5721359375906183,1.5770529760326093,-1.5809507201229573,-1.5474604036894704,-0.0008441828560112617,-0.43584416432663264,-0.13636866303208983,0.663216490480774,-1.0534980846370254,2.4313041415914673,-0.0791127228658422,-29.257042111743974,-6.103536908271692,41.869430399345205,-142.9370658666329,71.36052905112808,-155.49578515762138,0.5,0.0,0.5,0.0,-0.0,0.0
0.018000000000000002,0.4924934521319138,0.13378399440847533,0.5062857833936905,-1.564393719664742,0.02865535453438328,-1.5746993998264587,0.04592518323165197,-0.0231789214488467,-0.16590365315932612,2.6597144883157506,-0.5827821071074152,-0.37922028379942446,9.663075221063497,-8.712527189754764,-2.741336880394489,64.95133136936273,-110.42309878025034,126.9896722115979,-0.005097392253708642,-1.5724317949739337,1.5785165925735904,-1.583252124862625,-1.5421339303574046,-0.0010112675118701554,-0.4796939701771995,-0.14792869165768302,0.7318082704906279,-1.1507023698338505,2.663236666032846,-0.08354232792944685,-28.428227394070543,-5.799593678906763,40.259560503421035,-140.1067372095536,66.50218618878107,-155.0610521688998,0.5,0.0,0.5,0.0,-0.0,0.0
0.020000000000000004,0.49259282623549855,0.13373128763930367,0.5059200015286398,-1.5631765473166594,0.03441558840385861,-1.5754893879756082,0.04958309463574776,-0.026389165535477318,-0.1822079426029456,2.8770846711421356,-0.6224110680925834,-0.41245825430796657,9.536716929798,-8.703472416725736,-2.3578723908910297,60.04918958631767,-109.8660250559482,127.34823533011668,-0.0061404785356993586,-1.572748624972072,1.5801117541071463,-1.58573391153226,-1.5363707385201515,-0.0011858931343481426,-0.5215431409953583,-0.15841499906909468,0.7975807667779489,-1.2408933348174762,2.881595918626574,-0.08731281123899365,-27.642226323079655,-5.512822982934787,38.68682451044557,-137.34747323464143,61.8948984783566,-154.61769001614863,0.5,0.0,0.5,0.0,-0.0,0.0
0.022000000000000006,0.4926989933908259,0.13367193839127092,0.5055222490623669,-1.5618960183585944,0.04058582356858631,-1.576332757722659,0.052958687244381,-0.029719715265359825,-0.19809344757333702,3.0813598668706126,-0.6575974675659373,-0.4437522361083508,9.411515551262731,-8.695713821135309,-1.9781717995871282,55.37061033789418,-109.41494338265353,127.64521189315536,-0.007263440852107827,-1.5730843643332164,1.5818330034516515,-1.5883824709722176,-1.5301967887852772,-0.001366945637078816,-0.5614811582042343,-0.16786968057221424,0.8606246722525962,-1.3242797199788874,3.086974867437095,-0.09052625136533674,-26.896727488117627,-5.2430575722162835,37.150646781243005,-134.66009525104405,57.52742588262067,-154.16660309023212,0.5,0.0,0.5,0.0,-0.0,0.0
0.024000000000000007,0.4928113984218578,0.13360570904467783,0.5050933530764932,-1.5605614678171655,0.04714111498524254,-1.577224791757862,0.05605503941562876,-0.03317036695482622,-0.21356550776590477,3.2731014541551433,-0.6885008832394901,-0.4731391871062366,9.287527667134311,-8.688943273519953,-1.6023093690999,50.90700224699822,-109.06561659410345,127.88243548689486,-0.008462624200645301,-1.5734370327531804,1.5836750550386012,-1.5911846154053046,-1.5236369381699837,-0.001553484516060783,-0.5995916742687369,-0.17633420998194183,0.9210257934748889,-1.4010722165435145,3.2799253076467667,-0.09326943949098357,-26.189545782530878,-4.9901200552680365,35.65049707163499,-132.04515645531816,53.389324629056325,-153.70887719698845,0.5,0.0,0.5,0.0,-0.0,0.0
0.02600000000000001,0.4929294926782465,0.13353236167725335,0.5046341302342303,-1.5591818679874538,0.05405754717978395,-1.5781610021420711,0.058875519576424604,-0.03674127172848001,-0.2286302340698303,3.452834178040322,-0.715279995727377,-0.5006716391813536,9.164799439930512,-8.682851846613225,-1.2303379185286198,46.65039954271684,-108.81386551266175,128.0620005507686,-0.009734530076767781,-1.5738047316335504,1.5856327860912212,-1.5941275803595638,-1.5167150169155406,-0.0017447168539571384,-0.6359529380612399,-0.18384944018496846,0.9788655263100148,-1.4714824771295778,3.4609606272216062,-0.0956161689481777,-25.518616828737287,-4.753823107150641,34.185882420703166,-129.50296615662947,49.470897441469106,-153.24573145157993,0.5,0.0,0.5,0.0,-0.0,0.0
0.02800000000000001,0.4930527345277977,0.13345165743746185,0.5041453852007293,-1.557765824875333,0.06131216398892203,-1.57913717026413,0.06142375411012096,-0.040432872167376725,-0.24329440886934553,3.621048502702596,-0.7380921185709326,-0.5264146210610885,9.043368038282834,-8.677131466306164,-0.8622909023910541,42.59341911059725,-108.65557928012203,128.18620841357452,-0.01107580648034951,-1.574185642854052,1.5877012286513543,-1.5971990248566683,-1.5094539000552252,-0.0019399752136771411,-0.670638201790865,-0.19045561025080535,1.034221280066621,-1.535722248552255,3.6305584301577327,-0.09762917986000137,-24.881991376796982,-4.533969643622313,32.756340246586916,-127.03361234956888,45.76314606262382,-152.77847825653075,0.5,0.0,0.5,0.0,-0.0,0.0
0.030000000000000013,0.49318058979720236,0.13336335603924312,0.5036279092650059,-1.5563215777723214,0.06888290340068348,-1.5801493779671596,0.06370360010563557,-0.04424584245322216,-0.2575653984330729,3.7782028563200276,-0.7570927610184301,-0.550443015850647,8.923262870929296,-8.671476438521196,-0.4981842710146758,38.72921966780622,-108.58672455601908,128.25752111000696,-0.012483238697815606,-1.5745780275680925,1.5898755623643939,-1.6003870300929544,-1.5018755740056267,-0.002138698835686023,-0.703716108733048,-0.19619235702023216,1.0871668565198003,-1.5940026181430305,3.78916302479922,-0.09936181100444097,-24.277829730806243,-4.3303529841481865,31.361432494615144,-124.63698268408896,42.25772596411934,-152.3084901543915,0.5,0.0,0.5,0.0,-0.0,0.0
0.032000000000000015,0.49331253216924836,0.13326721537173777,0.5030824791395534,-1.5548570016434682,0.07674853721026897,-1.5811940309918644,0.06571912201733479,-0.04818103206516233,-0.2714510756359476,3.9247257702223,-0.7724352317671579,-0.5728392932141394,8.804506656231265,-8.665584857589803,-0.13801814237356513,35.051462996649505,-108.60335350099687,128.2785218668136,-0.013953740820601563,-1.5749802250271323,1.5921511079433424,-1.6036800968225708,-1.4940011984370296,-0.0023404176419344657,-0.7352510613929781,-0.20109872951986113,1.1377727894742216,-1.6465333648082923,3.937187784298543,-0.10085940312422134,-23.704396245153966,-4.142757020304164,30.000740696333803,-122.31278388927575,38.94690314302763,-151.83717251725605,0.5,0.0,0.5,0.0,-0.0,0.0
0.034000000000000016,0.4934480435429549,0.13316299121735437,0.5025098559171935,-1.5533796119914156,0.08488861521061208,-1.5822678757607345,0.06747457143033045,-0.05223941303174347,-0.28495975148133323,4.061017915172442,-0.7842702883122906,-0.593691564360157,8.68711635063676,-8.659159901933355,0.21822168838751743,31.554277159997852,-108.7016105221612,128.25188130284832,-0.01548434796066086,-1.5753906514369032,1.594523321243013,-1.6070671416348508,-1.4858511636653013,-0.0025447386243464343,-0.7653035700296484,-0.20521320488544603,1.1861066498352972,-1.6935224061399725,4.075017385864181,-0.10216049120598428,-23.160053922952436,-3.970956400156954,28.673861811716804,-120.0605597137959,35.82351290887946,-151.36594118283267,0.5,0.0,0.5,0.0,-0.0,0.0
0.03600000000000002,0.49358661436159756,0.13305043707145614,0.5019107841677425,-1.5518965718557831,0.09328341364390758,-1.5833680104134706,0.06897436924893845,-0.0564220307040878,-0.29810011408846754,4.187454038092608,-0.7927458339013065,-0.6130919150738502,8.57110395657396,-8.651911022804391,0.57056237881444,28.232221616502613,-108.87773780001253,128.18032852149747,-0.017072209124019546,-1.575807798846388,1.5969877878840657,-1.6105374923010174,-1.4774451437952765,-0.0027513342594866225,-0.7939305816793423,-0.20857370474249487,1.2322333205263967,-1.73517533308333,4.203009935012416,-0.10329781757009418,-22.643259141265347,-3.814716734909757,27.380404740232713,-117.87970745091852,32.88092056920535,-150.89620427379907,0.5,0.0,0.5,0.0,-0.0,0.0
0.03800000000000002,0.49372774391234,0.1329293040569478,0.5012859911596811,-1.5504147006128208,0.10191388764999187,-1.5844918909002896,0.07022308973070981,-0.06072995799289066,-0.31088117398540993,4.304384802822453,-0.7980066621575859,-0.6311349781916332,8.456477227693542,-8.64355503163027,0.9190427884021659,25.080254151049175,-109.12807964641874,128.0666263900487,-0.018714580703952998,-1.5762302340687981,1.5995402183741012,-1.614080882348892,-1.4688021458340428,-0.002959932645071657,-0.8211857899667263,-0.21121761120503157,1.2762152450177813,-1.7716950239372062,4.321498980616875,-0.10429919279251712,-22.15255652170557,-3.6737948310905826,26.119987399287563,-115.76949312006062,30.112983926853637,-150.42934754657236,0.5,0.0,0.5,0.0,-0.0,0.0
0.04000000000000002,0.4938709406001433,0.13279934092709664,0.5006361861943145,-1.5489404842531358,0.11076162745886187,-1.5856373328453148,0.07122544587797444,-0.06516425299834472,-0.32331221470295757,4.412138538633517,-0.8001942480494495,-0.647916712254794,8.3432402871305,-8.633817091163802,1.2637123298708453,22.093699535885477,-109.44908576321507,127.91355040094263,-0.020408820556139174,-1.5766565976324454,1.602176443679534,-1.61768744500847,-1.4599405549817752,-0.003170309099856032,-0.8471199260930875,-0.21318178182362432,1.3181126527164633,-1.8032813297889643,4.430795426133823,-0.10518822739218746,-21.6865739602767,-3.5479389495659945,24.892234280737405,-113.72906537986752,27.514017507597195,-149.9667227099211,0.5,0.0,0.5,0.0,-0.0,0.0
0.04200000000000002,0.4940157221977463,0.1326602941500157,0.4999620600418674,-1.5474800868329492,0.119808818087217,-1.586802509806407,0.07198627577599144,-0.06972591995565557,-0.33540274780299517,4.511022900251272,-0.7994465829135157,-0.6635333577106539,8.231394172475234,-8.622431615239154,1.6046299074049326,19.268219839621565,-109.8373134837929,127.7238705966096,-0.02215238261905231,-1.5770856027583484,1.6048924112075404,-1.621347706656175,-1.4508781762978205,-0.0033822790073556805,-0.8717810314565686,-0.21450256295149667,1.3579837640031647,-1.830130823852519,4.5311893419773455,-0.10598495374982421,-21.24401782665966,-3.4368890913857326,23.696774407524266,-111.75746825000326,25.078758441968418,-149.5096382350405,0.5,0.0,0.5,0.0,-0.0,0.0
0.044000000000000025,0.4941616160727801,0.13251190806834215,0.4992642844706752,-1.5460393628151199,0.12903820231207508,-1.5879859484799974,0.07251052953385496,-0.07441587341739936,-0.3471624715975023,4.601326443085494,-0.7958980505938366,-0.6780805460470329,8.120937319389501,-8.609143081485284,1.941862928873464,16.59978630433197,-110.28942908733448,127.50033611457539,-0.023942812043848318,-1.5775160343605688,1.6076841811621203,-1.6250525798713136,-1.441632272930562,-0.0035956917169220103,-0.8952147123980033,-0.21521580111016028,1.3958849772899613,-1.852436607569322,4.622951683629247,-0.10670635478316495,-20.823668340323877,-3.3403773097572294,22.53323962304676,-109.85365272016736,22.802333930757573,-149.05935224867747,0.5,0.0,0.5,0.0,-0.0,0.0
0.04600000000000003,0.49430815939247497,0.13235392512776467,0.49854351186208173,-1.5446238700387034,0.1384330467078887,-1.5891865213292293,0.0728032565430477,-0.07923490559575196,-0.35860123292386803,4.683320117261662,-0.7896793413529714,-0.6916525407285167,8.011865994241111,-8.593706760897334,2.2754863809061643,14.084652714885735,-110.80220827858568,127.2456619743108,-0.02577774079901982,-1.5779467480646279,1.610547923242334,-1.6287933562047896,-1.4322196010911692,-0.003810425343740016,-0.91746437758575,-0.21535685202959043,1.4318710401069048,-1.8703881667380018,4.706335919696396,-0.10736681340900299,-20.424375128670015,-3.258128047115311,21.401263155534465,-108.01648732539493,20.68023022905752,-148.61706716114116,0.5,0.0,0.5,0.0,-0.0,0.0
0.04800000000000003,0.4944548993059296,0.13218608616817124,0.4978003749048998,-1.5432388830791393,0.14797711054677665,-1.5904034370505151,0.07286959282053833,-0.08418365679121537,-0.36972899143978555,4.757258683898623,-0.7809173999875234,-0.7043415918215236,7.904174684731907,-8.575889367728216,2.6055819573625856,11.719330189076203,-111.3725359263529,126.96251778327722,-0.027654883716139403,-1.5783766692388623,1.6134799136541433,-1.6325616987474898,-1.4226564419436176,-0.004026382333152841,-0.9385714585597922,-0.21496058711721744,1.4659952059046166,-1.8841712713500722,4.781579573775761,-0.10797849470641203,-20.045052970754337,-3.189858496182711,20.300478408495042,-106.24476776656408,18.708263089082816,-148.18392573290774,0.5,0.0,0.5,0.0,-0.0,0.0
0.05000000000000003,0.4946013931035195,0.13200813077130774,0.49703548636434103,-1.5418894067844986,0.15765461737429032,-1.5916362292369828,0.07271474824971003,-0.08926258883897063,-0.38055578598819617,4.823382056904889,-0.7697354044919292,-0.7162373888102445,7.797856456234442,-8.555469632752521,2.932237233224731,9.500563321863723,-111.99740515209885,126.6535180879627,-0.02957203494404752,-1.5788047920332196,1.6164765324101018,-1.6363496345739303,-1.4129586305763044,-0.0042434856749540934,-0.9585756139540589,-0.21406139717860154,1.4983093779792565,-1.8939679132203133,4.848905683656573,-0.10855167090062638,-19.684677728860226,-3.1352789840046054,19.230517936236637,-104.53722565423718,16.882549607149002,-147.7610083281641,0.5,0.0,0.5,0.0,-0.0,0.0
0.05200000000000003,0.4947472083527158,0.13181979765895024,0.4962494389211942,-1.5405801897960643,0.16745022908537477,-1.5928847435467823,0.07234399357420435,-0.09447196150830578,-0.3910917026606562,4.88191657337865,-0.7562527716247909,-0.7274265983698296,7.692903280413058,-8.532238802589626,3.2555448772854154,7.425307621893765,-112.67391585674224,126.32121413744392,-0.03152706477986764,-1.5792301784197664,1.6195342608934684,-1.6401495471257437,-1.4031415822141413,-0.004461675670482581,-0.9775149179100617,-0.21269319327340835,1.528864241683253,-1.8999562759067183,4.908524181081515,-0.10909499776424357,-19.342282469203354,-3.0940933781052387,18.191012570552168,-102.8925364525931,15.1994814251202,-147.34933114204546,0.5,0.0,0.5,0.0,-0.0,0.0
0.054000000000000034,0.49489192300936335,0.1316208251357032,0.49544280507775207,-1.53931573788346,0.17734902233672045,-1.5941491236394014,0.0717626470376653,-0.0998118117943203,-0.40134684425710404,4.933076195503656,-0.740585185814244,-0.7379924758221128,7.589306341668497,-8.506001067457031,3.575601898210313,5.49070818324914,-113.39927276950291,125.9680868630083,-0.03351791684624243,-1.579651957229057,1.6226496796652217,-1.6439541685893695,-1.393220315824129,-0.004680907169963568,-0.995426033187393,-0.21088940464527567,1.557709385876626,-1.902310731812905,4.960633195006224,-0.10961574974049351,-19.016953772281937,-3.065999514114004,17.181590670944402,-101.30932669829778,13.655699241255983,-146.949845221335,0.5,0.0,0.5,0.0,-0.0,0.0
0.056000000000000036,0.495035125503312,0.13141095157064325,0.4946161371275697,-1.5381003269453786,0.18733646714251595,-1.5954297961035764,0.07097606059696948,-0.10528193604374575,-0.4113313009020719,4.9770636466414855,-0.7228446479723084,-0.7480145406920427,7.487056326000596,-8.47657391946494,3.892508919633335,3.6940795400278006,-114.17078309775316,125.59654090840215,-0.03554260558518129,-1.5800693231764869,1.6258194664940153,-1.6477565723128773,-1.3832094752620496,-0.0049011472099575225,-1.0123443694694299,-0.2086829737148878,1.5848934143968003,-1.9012018617539095,5.00542028103971,-0.110120019996977,-18.707828232748096,-3.0506896443752316,16.201877476273243,-99.78618056678144,12.248068589676327,-146.56343612676415,0.5,0.0,0.5,0.0,-0.0,0.0
0.05800000000000004,0.4951764147972137,0.13118991591213153,0.49376996718660204,-1.5369380155465069,0.1973984075106192,-1.5967274545656849,0.06998960566823394,-0.11088187485792633,-0.4210551216326662,5.014071484135188,-0.7031395409572682,-0.7575683082436095,7.386143696018289,-8.443788443362621,4.2063694809133505,2.0328866557214695,-114.98585385156903,125.20889957196479,-0.03759921403989576,-1.580481535872833,1.6290403945903686,-1.6515501652981635,-1.3731233481030132,-0.005122372991333184,-1.0283042273572347,-0.206106348173045,1.6104640481767032,-1.896796492643076,5.04306357951827,-0.1106128906878308,-18.414089148152847,-3.047850907187929,15.251494540498344,-98.32164585555562,10.973656851572503,-146.1909241094177,0.5,0.0,0.5,0.0,-0.0,0.0
0.06000000000000004,0.49531540041726296,0.13095745823022442,0.4929048072836096,-1.5358326568794776,0.2075210439854147,-1.5980430431372779,0.06880865839398943,-0.11661090071567914,-0.43052828682263217,5.0442831111641295,-0.6815747086164043,-0.766725070131839,7.286558955035193,-8.407489541505692,4.517289361045319,0.5047270034373099,-115.84198891123545,124.80740054483549,-0.03968589189698003,-1.5808879188133438,1.6323093310274068,-1.6553286807968095,-1.3629758822940876,-0.0053445701471579316,-1.043338928542136,-0.20319147025537862,1.634468218519078,-1.889257749322994,5.073732904462814,-0.11109857791237368,-18.13496339544041,-3.057165816384982,14.330059239289291,-96.91423945099066,9.82971146479754,-145.833064694654,0.5,0.0,0.5,0.0,-0.0,0.0
0.06200000000000004,0.4954517024546959,0.13071332028122445,0.4920211495079859,-1.5347879100575577,0.21769091797211404,-1.5993777393342863,0.0674385844466125,-0.12246800825673249,-0.43976068135004265,5.067873729827645,-0.6582515455505429,-0.775551718387485,7.188292902463931,-8.367536094730589,4.825375923983589,-0.8926863032846484,-116.73678590044756,124.39419234904668,-0.04180085376227681,-1.5812878583399896,1.6356232353312805,-1.659086171030644,-1.3527807007630996,-0.005567731257533042,-1.0574809326483894,-0.19996976332294167,1.6569521519368873,-1.8787451169172653,5.097590765494035,-0.11158055518755502,-17.869718493615043,-3.0783127709408076,13.437184337733932,-95.56245234139075,8.81363930154747,-145.49054958486823,0.5,0.0,0.5,0.0,-0.0,0.0
0.06400000000000004,0.49558495153693816,0.13045724608902792,0.4911194662133223,-1.5338072506593696,0.22789489772502503,-1.6007329365780734,0.06588472340748912,-0.12845190716281707,-0.44876206845398214,5.0850112374874925,-0.6332680949606154,-0.7841106078754492,7.091336882060575,-8.32380106079542,5.130737484309583,-2.1615403659738632,-117.66793292247766,123.97133139606728,-0.04394237764476058,-1.581680802571816,1.6389791582250666,-1.662817000051489,-1.3425511141138367,-0.005791854574896539,-1.0707619412418852,-0.19647211591324065,1.6779614468930155,-1.8654145104225845,5.114793324631472,-0.11206165868174843,-17.61765985057411,-3.110966584220746,12.572477612265882,-94.2647542353034,7.922987186484913,-145.1640078077918,0.5,0.0,0.5,0.0,-0.0,0.0
0.06600000000000004,0.4957147887674146,0.13018898253805752,0.4902002102751274,-1.5328939804612922,0.23812016588941542,-1.6021102263695823,0.06415237278351599,-0.13456101756829691,-0.457542064258384,5.095857068267474,-0.6067191521606389,-0.7924594531556116,6.995683023969645,-8.27617151207012,5.433482692761919,-3.303937377032952,-118.63320521118064,123.54077960057705,-0.046108803623778755,-1.5820662602987448,1.6423742405104969,-1.666515836748675,-1.3323001315342755,-0.006016942928842884,-1.0832129895090843,-0.19272886346430249,1.6975411427150946,-1.8494183485930042,5.1254912897805855,-0.11254417697317211,-17.378128191638204,-3.1547990323058945,11.735541522242046,-93.01959783980686,7.1554235298522535,-144.854007050154,0.5,0.0,0.5,0.0,-0.0,0.0
0.06800000000000005,0.4958408656332056,0.12990827997270651,0.4892638154011456,-1.5320512363063905,0.24835420849308987,-1.6035113802120164,0.0622467717423978,-0.14079346792564623,-0.46611011296922206,5.100566981492977,-0.5786963715678433,-0.800651256342171,6.901324480975753,-8.224548614230397,5.733719941649953,-4.321908547280117,-119.63046174343857,123.10440249625412,-0.04829853267602262,-1.5824437998346443,1.6458057120723386,-1.6701776480076562,-1.3220404700410446,-0.0062430027842118796,-1.094864526121931,-0.18876976794976771,1.7157357809208778,-1.8309056294906703,5.129830746615403,-0.11302992768449796,-17.150497166848627,-3.209479420610114,10.925972928465042,-91.82542284908794,6.508721051879757,-144.56105512776426,0.5,0.0,0.5,0.0,-0.0,0.0
0.07000000000000005,0.49596284387993383,0.12961489279837876,0.4883106964927037,-1.531281998070883,0.2585848052897268,-1.604938331344536,0.060173084665723485,-0.14714709524325187,-0.474475462774812,5.099291798753721,-0.549288375207146,-0.8087342631192795,6.808255658883224,-8.16884754782126,6.0315567905943475,-5.217427114507771,-120.65764185450851,122.66396781040712,-0.050510025639660595,-1.5828130478260354,1.6492708909906673,-1.6737976920184376,-1.3117845621800608,-0.006470043430201521,-1.1057464818189888,-0.18462399569547375,1.73258945916427,-1.8100220053906748,5.127953930491961,-0.11352032299482068,-16.934171133605275,-3.274675167708404,10.143362857316827,-90.68065968895853,5.980740576121469,-144.2856015526685,0.5,0.0,0.5,0.0,-0.0,0.0
0.07200000000000005,0.49608039535349985,0.12930858007938303,0.48734125005544104,-1.5305890957003723,0.26880002136144965,-1.6063931563390508,0.05793638463396135,-0.1536194476042838,-0.4826471424982961,5.092178091188755,-0.5185808609920393,-0.8167519445392507,6.716472440515624,-8.108997374701547,6.32709941338578,-5.992420460537929,-121.71276189274995,122.2211444626096,-0.05274180229416038,-1.5831736880133895,1.6527671827466668,-1.677371511728502,-1.301544562300105,-0.006698076281665277,-1.1158883272498914,-0.18032009367708188,1.7481458779997763,-1.7869098550321747,5.119999939977878,-0.11401642573187785,-16.728583110698608,-3.350052404966931,9.387296310169079,-89.58373305812916,5.569415870270711,-144.02803916619288,0.5,0.0,0.5,0.0,-0.0,0.0
0.07400000000000005,0.49619320180854937,0.12898910612913328,0.4863558546576871,-1.529975215298448,0.27898819989310075,-1.607878056604109,0.05554163697016934,-0.16020778886585513,-0.4906339390667029,5.079368818523203,-0.4866567092660314,-0.8247430026161899,6.625972402456606,-8.044940851553502,6.620452067026072,-6.6487813627984735,-122.7939119453746,121.7775019593114,-0.05499244053545777,-1.5835254599426367,1.6562920795079905,-1.68089492843151,-1.2913323515129966,-0.006927114276651501,-1.1253191206486954,-0.17588596462359476,1.7624483806618774,-1.7617083515039793,5.10610539355416,-0.11451899749311213,-16.53319289925629,-3.435276590199283,8.657352118370188,-88.5330653020915,5.2727395135427475,-143.78870581364146,0.5,0.0,0.5,0.0,-0.0,0.0
0.07600000000000005,0.49630095468383817,0.12865624108832038,0.4853548714346059,-1.52944290425993,0.2891379560352787,-1.609395339833882,0.05299368297935289,-0.1669091054277571,-0.4984443758725182,5.061003921329602,-0.45359608630710735,-0.8327413980422927,6.5367550233387846,-7.976634192834971,6.911716584221926,-7.1883784052949835,-123.89925266218565,121.33451016188128,-0.05726057562730005,-1.583868157625182,1.6598431594801182,-1.6843640354801908,-1.2811595414509276,-0.007157171356706145,-1.13406754592114,-0.1713488412726706,1.77553998606384,-1.7345535243404242,5.086405031034537,-0.1150285400273218,-16.34748536556727,-3.5300131332003195,7.953102844435433,-87.52707965038815,5.088749769893088,-143.56788604230783,0.5,0.0,0.5,0.0,-0.0,0.0
0.07800000000000006,0.49640335484495696,0.12830976148695475,0.48433864463609105,-1.52899457545004,0.29923817177743706,-1.6109474014360932,0.05029722402789459,-0.17372011494997697,-0.5060866921117155,5.037220867942128,-0.41947654371124643,-0.8407763986051743,6.448821882232799,-7.904046785755504,7.200991890740422,-7.613065572980929,-125.0270121997554,120.89353940984442,-0.05954489951080075,-1.5842016281454623,1.6634180863105898,-1.6877751921095552,-1.2710374769284216,-0.007388262018552928,-1.1421619417503472,-0.1667352601400754,1.7874634152358535,-1.7055783146822374,5.061032261253033,-0.11554533092339142,-16.17096888018177,-3.633928030615696,7.274114730125904,-86.56420334295204,5.015518446205782,-143.36581280943426,0.5,0.0,0.5,0.0,-0.0,0.0
0.08000000000000006,0.49650011229519736,0.127949450786435,0.48330750221621693,-1.5286325104392737,0.30927799175629866,-1.6125367059702453,0.047456806112311935,-0.18063727688822,-0.5135688231869283,5.008155157417486,-0.38437311277895503,-0.8488726470802965,6.362176845489245,-7.8271608600694655,7.4883735491144705,-7.924691052897018,-126.1754833041384,120.45586098435741,-0.06184416015548946,-1.5845257702158164,1.6670146085334767,-1.6911250173548087,-1.2609772376132427,-0.007620400927541491,-1.1496303223443551,-0.16207103517706134,1.7982611114434834,-1.674912622626804,5.030119657589536,-0.1160694544942816,-16.00317390712813,-3.7466885072458513,6.61994769194102,-85.64287066607375,5.051139714172153,-143.18266919094296,0.5,0.0,0.5,0.0,-0.0,0.0
0.08200000000000006,0.49659094585565244,0.12757509989807286,0.48226175646189284,-1.5283588618117638,0.31924681992849324,-1.6141657686264494,0.0444768050687285,-0.18765680470713864,-0.5208983822661339,4.97394077991052,-0.34835839323000006,-0.8570502475199888,6.276826240247143,-7.745971115685988,7.7739533302072825,-8.125105265020906,-127.34302054604187,120.02264789934686,-0.064157160936422,-1.5848405326792077,1.6706305590419817,-1.6944103840471123,-1.250989638807376,-0.007853602584759265,-1.156500390466274,-0.15738123169567433,1.8079752542525231,-1.642683346151834,4.993799402933322,-0.11660082860888699,-15.843651736533277,-3.8679636605367698,5.990155364216042,-84.76152591351796,5.1937198739353745,-143.0185900852639,0.5,0.0,0.5,0.0,-0.0,0.0
0.08400000000000006,0.4966755828159635,0.12718650767479966,0.4812017046581818,-1.5281756545725484,0.32913431703975915,-1.6158371367753803,0.0413614125738723,-0.19477467962202372,-0.5280826430861543,4.934710635813907,-0.3115026357650288,-0.865324868966197,6.192779012738351,-7.66048431129751,8.057818814115832,-8.216168145507936,-128.5280377183801,119.5949760093397,-0.06648276002322813,-1.5851459129610932,1.6742638545776496,-1.6976284128696024,-1.2410852314359293,-0.00808788104097584,-1.1627995434030665,-0.15269014094278202,1.816647767833914,-1.6090144112450306,4.952203685723408,-0.11713922810828782,-15.691973353405196,-3.997425104699696,5.384285189524402,-83.91862628336403,5.4413680367389805,-142.87366390948415,0.5,0.0,0.5,0.0,-0.0,0.0
0.08600000000000006,0.49675375855744347,0.126783481373089,0.48012762978759077,-1.5280847866864478,0.33893039882624976,-1.6175533716211932,0.038114623085190785,-0.20198666571182106,-0.5351285240867343,4.890596914998392,-0.2738738181772069,-0.8737078656838906,6.11004686948984,-7.570718817411318,8.34005302181455,-8.199755704878811,-129.72900540235003,119.17382542394535,-0.06881986976831068,-1.585441955472491,1.6779124952253115,-1.7007764664558191,-1.2312743013384304,-0.00832324965166245,-1.168554872541277,-0.14802125569888644,1.8243203238309158,-1.574026793108402,4.905465048749476,-0.11768430534330428,-15.547728434838806,-4.13474761065057,4.801878555521423,-83.112644716387,5.792187702832568,-142.74793428742026,0.5,0.0,0.5,0.0,-0.0,0.0
0.08800000000000006,0.49682521615060177,0.12636583708246116,0.47903980126046775,-1.5280880287882377,0.3486252348864811,-1.6193170299914612,0.03474022186186863,-0.20928832623941235,-0.5420425739552107,4.841731437481143,-0.23553771489125186,-0.882206413051416,6.028644399551956,-7.4767041373359175,8.620734078823256,-8.077765883682972,-130.94444870459174,118.7600822193115,-0.0711674560827645,-1.5857287499670263,1.6815745639035893,-1.7038521435128753,-1.2215668679535387,-0.008559720868232064,-1.173793157226903,-0.14339724726759134,1.8310343391388946,-1.537838528528112,4.853716692445859,-0.11823560828480749,-15.410524467452596,-4.2796097377479,4.242470976708063,-82.34207267725898,6.244269209805805,-142.64140173112474,0.5,0.0,0.5,0.0,-0.0,0.0
0.09000000000000007,0.49688970592938986,0.12593340012027007,0.4779384756735051,-1.5281870231105408,0.3582092481652679,-1.6211306463011976,0.03124177420027617,-0.21667504100962837,-0.548830958654163,4.78824595684431,-0.19655795996970804,-0.890823658258072,5.9485891759577365,-7.378480399811824,8.899934912027817,-7.8521237282196665,-132.1729451646682,118.3545404367583,-0.07352453778994741,-1.5860064298554384,1.6852482258415384,-1.7068532729522898,-1.2119726824846164,-0.008797306061401809,-1.1785408535914594,-0.13883994420603346,1.8368309689746156,-1.500564719707317,4.797092734461149,-0.11879259658487233,-15.279985976457725,-4.431694453180838,3.7055923189348974,-81.60542287561307,6.795683025369188,-142.55402531884562,0.5,0.0,0.5,0.0,-0.0,0.0
0.09200000000000007,0.49694698504475016,0.12548600538982702,0.47682389759321375,-1.5283832816823215,0.3676731149936163,-1.6229967147316058,0.0276226160068118,-0.2241420245913533,-0.5554994499952163,4.730272427722142,-0.15699610377578951,-0.8995588849524397,5.8699018347438345,-7.276097827088787,9.177722980597919,-7.524785908996051,-133.41312282903075,117.95790435828972,-0.07589018594800097,-1.5862751704816902,1.68893172803281,-1.7097779080123874,-1.2025012256299454,-0.00903601537320945,-1.1828240790267799,-0.13437031312594427,1.8417510956357888,-1.4623175300488138,4.735728427335507,-0.1193546559038216,-15.15575385742686,-4.590689734773786,3.1907670637850316,-80.90123192012692,7.444473857439542,-142.4857243735939,0.5,0.0,0.5,0.0,-0.0,0.0
0.09400000000000007,0.49699681700029386,0.12502349770026927,0.4756963003611265,-1.5286781838571077,0.3770077656309776,-1.6249176716682647,0.02388584581844308,-0.23168434522760356,-0.5620534158116725,4.66794323867283,-0.11691166361704,-0.9084076909617406,5.792606130032674,-7.169616182329248,9.454160041737536,-7.097744604734132,-134.6636584848597,117.57079104785745,-0.07826352313397472,-1.5865351873654294,1.6926233986595536,-1.7126243203574765,-1.1931617049576155,-0.009275857594737967,-1.1866685929868768,-0.1300084418695896,1.8458353133717893,-1.4232061725445593,4.669760336164909,-0.11992111076425867,-15.037484801545638,-4.7562891529819575,2.697514609346335,-80.22806289531022,8.188655553222604,-142.43638014728356,0.5,0.0,0.5,0.0,-0.0,0.0
0.09600000000000007,0.4970389711731479,0.12454573204694298,0.47455590691739763,-1.529072973236031,0.38620438525854306,-1.6268958784478122,0.02003431836671817,-0.23929694425660442,-0.5684978117711792,4.601391411749575,-0.07636216881322513,-0.9173621781668034,5.716728963884225,-7.059104200263031,9.729301951777044,-6.573030774882042,-135.92327604470415,117.19373314619993,-0.08064372268354691,-1.5867867344160997,1.6963216464791582,-1.715390994140634,-1.1839630520012663,-0.009516840067031747,-1.190099774786095,-0.1257735253351217,1.8491239098022743,-1.3833368915787905,4.59932647817457,-0.12049123614688939,-14.924850804945333,-4.928192427911455,2.2253496032911,-79.58450784766794,9.02620675788,-142.40583751592794,0.5,0.0,0.5,0.0,-0.0,0.0
0.09800000000000007,0.4970732223231927,0.12405257385142947,0.4734029306394076,-1.5295687540564693,0.3952544153743438,-1.628933604466706,0.016070639764901258,-0.2469746558677386,-0.5748371748574861,4.530750770084222,-0.035403200733937545,-0.9264111535726777,5.642300389868646,-6.944639005026177,10.003198502875872,-5.952716843737278,-137.1907450707161,116.82718190585092,-0.08303000788164443,-1.5870301021244846,1.7000249601678206,-1.7180766200187916,-1.1749139191489428,-0.009758968603038645,-1.1931425990487576,-0.12168385419237304,1.8516568443311596,-1.3428129390787868,4.524566426161727,-0.12106426800344917,-14.81753875258319,-5.106105957341289,1.773782303681184,-78.96919016541672,9.955067302319385,-142.3939066916202,0.5,0.0,0.5,0.0,-0.0,0.0
0.10000000000000007,0.4970993500940561,0.12354389916070095,0.47223757619193707,-1.5301664871224516,0.40414955554284715,-1.6310330107101962,0.011997164380438498,-0.2547122270187545,-0.5810756185377989,4.4561560747956825,0.005911571564519415,-0.9355403405648668,5.56935358958307,-6.826305519089786,10.275893295359106,-5.23891881943598,-138.46487942549922,116.47151045158405,-0.08542165110053751,-1.5872656157378715,1.7037319076158381,-1.720680089110894,-1.166022676393344,-0.010002247428695696,-1.1958216094465401,-0.11775680669345465,1.8534737240087567,-1.301734546051226,4.4456213777994185,-0.12163941282852504,-14.715250067110796,-5.289743311914174,1.3423189624996894,-78.38076683398985,10.973135288695852,-142.40036495703387,0.5,0.0,0.5,0.0,-0.0,0.0
0.10200000000000008,0.49711713850934175,0.12301959480524237,0.4710600403854639,-1.530866985358005,0.4128817654534753,-1.6331961337640768,0.007815993436553991,-0.2625043373448047,-0.5872168296195588,4.377743132534597,0.04753035940826689,-0.9447325992886972,5.497924821629292,-6.704195867120978,10.547423645462843,-4.433797871208242,-139.74453603519072,116.12701725018239,-0.0878179728832097,-1.5874936334253582,1.707441135170427,-1.7232004868921367,-1.157297408007709,-0.010246679141503033,-1.1981608913360955,-0.11400884374332515,1.8546137772944868,-1.260198890621329,4.362634192817449,-0.1222158564036686,-14.61770041320551,-5.478825693935637,0.930462226607851,-77.81793054820757,12.078264841364842,-142.42495842795194,0.5,0.0,0.5,0.0,-0.0,0.0
0.10400000000000008,0.4971263754676386,0.12247955851631552,0.46987051303914185,-1.531670909069211,0.42144326724406733,-1.6354248703759626,0.003528975367673371,-0.2703456188956226,-0.5932640667879133,4.295648874975086,0.08940322554047289,-0.9539681550372113,5.428053342879739,-6.578408778520339,10.817820528018842,-3.5395613884384574,-141.02861374937595,115.79392977205404,-0.09021834097097203,-1.5877145444400673,1.71115136682276,-1.725637087019629,-1.1487459092075216,-0.010492264685109894,-1.2001840438811726,-0.11045550735450588,1.8551158261664593,-1.218300063746072,4.275749400093709,-0.12279277180343046,-14.52461944799021,-5.673082356523388,0.5377115506409602,-77.27941166124721,13.268264490301572,-142.46740384893266,0.5,0.0,0.5,0.0,-0.0,0.0
0.10600000000000008,0.4971268522398854,0.12192369900287034,0.46866917784506745,-1.5325787610048536,0.42982654804670695,-1.637720962636652,-0.000862292066018483,-0.2782306755444253,-0.5992201608029354,4.210011411564673,0.13148205735473206,-0.9632248334835462,5.3597813021796545,-6.449048992247327,11.08710855337157,-2.5584635452127884,-142.31605228180382,115.4724083258975,-0.09262216927539409,-1.5879287672852034,1.7148614033367848,-1.7279893450872315,-1.140375682854125,-0.010739003338576393,-1.2019141522110282,-0.1071114225680233,1.8550182570123888,-1.1761290338012194,4.185113176698359,-0.12336932673324938,-14.435750608355871,-5.872250980217932,0.16356361628838556,-76.76397995041638,14.540896153394526,-142.52739042658726,0.5,0.0,0.5,0.0,-0.0,0.0
0.10800000000000008,0.49711836297265977,0.12135193598891741,0.46745621323048314,-1.5335908813090777,0.4380243627146081,-1.6400859838554283,-0.0053564579189850706,-0.2861541019206723,-0.6050875163239667,4.120970056844293,0.17372054155367012,-0.9724783015493729,5.293153606955231,-6.316226667385173,11.355305977596203,-1.4928053941772674,-143.6058312156274,115.16255004640338,-0.09502891679565534,-1.5881367478909638,1.718570121318223,-1.7302568923097217,-1.1321939362522553,-0.01098689271908235,-1.2033737601306262,-0.10399030288022021,1.8543589907190925,-1.1337736112451242,4.090873300934805,-0.12394469025297847,-14.350850926312447,-6.076078004554837,-0.19248724753157376,-76.27044618023082,15.893874683551706,-142.60458170420145,0.5,0.0,0.5,0.0,-0.0,0.0
0.11000000000000008,0.49710070420090524,0.12076420021247217,0.46623179321466235,-1.534707442462386,0.44602973668986445,-1.6425213252058213,-0.009952412488853014,-0.29411050172869163,-0.6108681153175071,4.028665333652524,0.21607413947128323,-0.9817023126632131,5.228217763518689,-6.180056802704833,11.622424744875216,-0.34493451368680894,-144.89696905702976,114.86439301388755,-0.09743808648337235,-1.58833895780931,1.722276472222934,-1.732439529138803,-1.1242075780894247,-0.01123592879693625,-1.2045848438585074,-0.10110495917298264,1.8531754523555397,-1.091318414540646,3.993179081415315,-0.12451803892695017,-14.26969086385253,-6.284318912534924,-0.5309486489084918,-75.79766344439183,17.32486794621139,-142.6986174805025,0.5,0.0,0.5,0.0,-0.0,0.0
0.11200000000000009,0.49707367437352823,0.12016043338744888,0.46499608825731487,-1.5359284443094654,0.45383596897285594,-1.6450281832202633,-0.014649280084575809,-0.3020945053250273,-0.616563521994959,3.9332389535318195,0.2585000623276441,-0.9908689551331549,5.165023692170481,-6.0406586682742685,11.88847056069937,0.8827557676066675,-146.188522321593,114.57792048383013,-0.09984922405782383,-1.5885358924335176,1.7259794813045692,-1.7345372188157457,-1.1164232155610334,-0.011486105921798847,-1.2055687872257375,-0.09846731210388887,1.851504540817622,-1.0488448384712947,3.892181264195647,-0.12508856243129832,-14.192054159246878,-6.496738466370873,-0.8523297265930978,-75.34452826993822,18.831497392630197,-142.8091157743349,0.5,0.0,0.5,0.0,-0.0,0.0
0.11400000000000009,0.4970370733951638,0.11954058813013563,0.4637492660954756,-1.5372537092736795,0.46143663515496414,-1.6476075482131283,-0.019446410203219213,-0.3101007864391571,-0.6221748892174138,3.834833775659681,0.30095724573124844,-0.9999489023385658,5.103623518494672,-5.898155251922895,12.153442994387047,2.1878275443912543,-147.47958463860493,114.30306520355191,-0.10226191677527299,-1.5887280692492645,1.7296782465021134,-1.7365500808675867,-1.1088471517210883,-0.011737416859082169,-1.2063463587245797,-0.09608840787342361,1.8493825987721297,-1.006431025920511,3.7880319199725507,-0.12565546864166074,-14.117737677193205,-6.713110893346058,-1.1571407576666637,-74.90998146906641,20.411339094230286,-142.93567483585093,0.5,0.0,0.5,0.0,-0.0,0.0
0.11600000000000009,0.49699070218725644,0.1189046278521037,0.46249149256597777,-1.5386828778585218,0.46882559047704353,-1.650260193711733,-0.024343367200572726,-0.3181240779346912,-0.627702966296575,3.7335937456347144,0.3434063228061313,-1.0089116634361057,5.04407134251764,-5.752672723118977,12.41733560926554,3.567799882015194,-148.76928585964856,114.03971379273081,-0.1046757921567711,-1.5889160261237631,1.7333719372685203,-1.7384783845557779,-1.1014853830944464,-0.011989852835519904,-1.206937690749052,-0.09397843724929805,1.8468453832034815,-0.9641518440956492,3.6808843133209743,-0.1262179882188674,-14.046551255795416,-6.933220021090844,-1.4458927833103914,-74.4930087268064,22.061925203308054,-143.07787520359966,0.5,0.0,0.5,0.0,-0.0,0.0
0.11800000000000009,0.4969343622714078,0.11825252662160513,0.46122293241076223,-1.5402154045357535,0.4759969728767821,-1.6529866669739057,-0.029339918555549228,-0.3261591865212111,-0.6331481081139643,3.6296638154560883,0.38580959539569387,-1.0177258332770343,4.9864229876494335,-5.604339916550527,12.680136118731303,5.02015071271741,-150.05679115923732,113.78771116414627,-0.10709051667941488,-1.5891003196391504,1.7370597933421812,-1.7403225422879247,-1.094343597582617,-0.012243403592933088,-1.207362261321889,-0.0921467576936017,1.8439280368304085,-0.9220788660734328,3.570892755914693,-0.12677537870659233,-13.978317543945572,-7.156859362035547,-1.7190972561739812,-74.09264091587505,23.780745805542985,-143.2352818055768,0.5,0.0,0.5,0.0,-0.0,0.0
0.12000000000000009,0.4968678553777231,0.11758426899568278,0.4599437500624463,-1.5418505541183551,0.48294520598874424,-1.6557872806686325,-0.03443602184146316,-0.33420100634024974,-0.6385102854747271,3.5231898460448168,0.4281310028808933,-1.0263593402459876,4.93073573154757,-5.4532878374246465,12.941826566302511,6.542319055755243,-151.34130011691076,113.54686496095296,-0.1095057944365233,-1.5892815234759652,1.7407411234634247,-1.7420831030047728,-1.0874271726913467,-0.012498057449238898,-1.2076388785542076,-0.09060191840740367,1.840665060621757,-0.8802803584240342,3.4582124456351884,-0.12732692815290528,-13.91287182333416,-7.383832147242919,-1.9772657121800314,-73.70795413349629,25.56525112999068,-143.40744610097553,0.5,0.0,0.5,0.0,-0.0,0.0
0.1220000000000001,0.4967909830806437,0.116899849825365,0.458654110407742,-1.543587398713641,0.4896650020615292,-1.6586621057929698,-0.039631810528575555,-0.34224453136246297,-0.6437890966076836,3.4143184936663435,0.47033608824456047,-1.034779690756106,4.877068021230045,-5.299649190218914,13.202383527698377,8.13170753615799,-152.62204577203923,113.31694998692973,-0.11192136577259519,-1.589460226852125,1.744415304038628,-1.7437607455558521,-1.0807411741044874,-0.012753801365772737,-1.2077856680359502,-0.08935168807987087,1.8370902876016804,-0.8388212755396641,3.3429992934296244,-0.12787195826691988,-13.85006180997698,-7.613951310257033,-2.2209094688917865,-73.33806945871238,27.41285408258594,-143.59390825801083,0.5,0.0,0.5,0.0,-0.0,0.0
0.1240000000000001,0.4967035464644908,0.11619927403643035,0.4573541795265049,-1.5454248153479584,0.49615136475711186,-1.6616109658938816,-0.044927578751691594,-0.35028486654661184,-0.6489837797197601,3.3031970816251808,0.5123919611135095,-1.0429542091714257,4.825479174916835,-5.143557932333459,13.461778332923242,9.78568517658266,-153.89829364455272,113.09771260651848,-0.11433700589921011,-1.5896370330223355,1.7480817777548192,-1.74535627207816,-1.074290354625028,-0.013010621020016816,-1.2078200633074612,-0.0884030851052526,1.8332368580955345,-0.7977632611539269,3.2254097397297468,-0.1284098271220394,-13.78974743084842,-7.847039422003314,-2.4505393518261904,-72.98215243263,29.320933069628637,-143.7941993618442,0.5,0.0,0.5,0.0,-0.0,0.0
0.12600000000000008,0.4966053458206584,0.1154825563883225,0.4560441254043808,-1.547361484349196,0.5023995917981212,-1.6646334326578058,-0.050323765183969596,-0.35831723772436297,-0.6540932265104908,3.189973458613537,0.5542672576131221,-1.050850271974348,4.776029073195501,-4.985148853810589,13.719977306300532,11.501590436502418,-155.1693407168539,112.88887509205858,-0.11675252349824185,-1.5898125578423583,1.7517400521478783,-1.7468706013929471,-1.0680791535006477,-0.013268500882853761,-1.2077587995158687,-0.08776241001135501,1.829137196529509,-0.7571646573936365,3.105600562190088,-0.1289399314184721,-13.731800571919202,-8.082928578157482,-2.666665449331237,-72.63941226803144,31.286835078262143,-144.0078436453284,0.5,0.0,0.5,0.0,-0.0,0.0
0.12800000000000009,0.4964961803781034,0.11474972121385393,0.45472411861720974,-1.5493958885669048,0.5084052774295436,-1.6677288229236729,-0.05582093616346057,-0.36633700018803356,-0.6591159965509267,3.0747958451057333,0.5959320969724999,-1.0584355350532126,4.728777842184113,-4.824557184009716,13.97694202239004,13.276734472743023,-156.43451437424798,112.69013989642053,-0.11916775931887137,-1.5899874284020132,1.7553896981275987,-1.7483047624360648,-1.0621116961477557,-0.013527424299492578,-1.2076179103147655,-0.08743527982749862,1.8248229898601587,-0.717080521558799,2.9837286764460518,-0.129461708319408,-13.676104794607749,-8.321460240741281,-2.8697968958957816,-72.3091007987656,33.307878981586434,-144.23436073403823,0.5,0.0,0.5,0.0,-0.0,0.0
0.1300000000000001,0.49637584806847446,0.11400080214237729,0.4533943329855446,-1.5515263135021515,0.5141643146621862,-1.6708961971667189,-0.061419768222224336,-0.37433964597108016,-0.6640503324308968,2.957812669198069,0.637358034919557,-1.0656781530515769,4.683785531406368,-4.661918225855052,14.232629575730723,15.108404595209251,-157.69317130326766,112.501193830235,-0.1215825847749162,-1.59016228173023,1.759030348462949,-1.7496598877374294,-1.0563917942846945,-0.01378737357324738,-1.207412728022409,-0.08742666410841025,1.8203251676751435,-0.6775626506823531,2.85995093153055,-0.12997463687740132,-13.622555018374243,-8.562485036017243,-3.060441683011131,-71.99051118319399,35.38135903677367,-144.4732678958972,0.5,0.0,0.5,0.0,-0.0,0.0
0.1320000000000001,0.49624414532691635,0.1132358418091124,0.4520549461978307,-1.553750848410331,0.5196728972661839,-1.6741343594908702,-0.0671210301692266,-0.38232080982328415,-0.6688941755791162,2.839172393298587,0.6785180140019645,-1.0725469897959,4.641111789097472,-4.497367018011715,14.486992862378898,16.993867891530797,-158.94469634924067,112.32171212408198,-0.12399690054894165,-1.590337763574876,1.7626616962308976,-1.7509372069649942,-1.0509229464816503,-0.014048330051387016,-1.2071578870127304,-0.08774092232299,1.8156738839742455,-0.6386596137823781,2.734423901522173,-0.13047823906981743,-13.5710571678768,-8.80586251103502,-3.2391064960105638,-71.68297637963906,37.504548545366816,-144.72408228465864,0.5,0.0,0.5,0.0,-0.0,0.0
0.1340000000000001,0.49610086692927763,0.11245489155330513,0.4507061404009895,-1.556067388430103,0.5249275214839422,-1.677441859156758,-0.07292556487766602,-0.3902762738940524,-0.6736451826619926,2.719023333071706,0.7193863110594566,-1.079011818900637,4.6008155376281685,-4.331038025097705,14.739980871255858,18.930374994328858,-160.1885013362911,112.15136235732565,-0.12641063520949186,-1.5905145272595027,1.7662834932321188,-1.752138040548172,-1.0457083391317938,-0.0143102742123162,-1.2068673302751078,-0.0883818423132754,1.81089850061055,-0.6004167915887995,2.60730367492822,-0.1309720804645921,-13.521527783800298,-9.051460851418184,-3.406296574656654,-71.3858674151449,39.67470364585324,-144.9863231655854,0.5,0.0,0.5,0.0,-0.0,0.0
0.1360000000000001,0.4959458058661446,0.11165801110785725,0.44934810275733555,-1.5584736377804844,0.5299249874331675,-1.680816993660678,-0.07883427092506246,-0.3982019711480249,-0.6783007424691023,2.5975134700382707,0.7599384821536953,-1.0850435137382068,4.562954651670252,-4.163064855803757,14.991538983378703,20.91516396487139,-161.4240238546501,111.98980823673858,-0.1288237438475788,-1.5906932326185608,1.7698955483768106,-1.7532637933949855,-1.0407508478453282,-0.014573185753395843,-1.206554319043476,-0.08935267952899459,1.8060275723459343,-0.5628764234067513,2.4787456432328128,-0.13145577053982116,-13.473893597121652,-9.299156563193815,-3.5625155946585423,-71.09859147187218,41.889067209600945,-145.25951411093126,0.5,0.0,0.5,0.0,-0.0,0.0
0.1380000000000001,0.49577875325382925,0.1108452682830107,0.44798102596693923,-1.560967114056023,0.5346624001720905,-1.6842578133671586,-0.08484808423045048,-0.4060939875471145,-0.6828579931960702,2.4747902592208892,0.8001513053318511,-1.0906142260545357,4.5275856416312354,-3.9935800085745026,15.241609277120652,22.94546426707226,-162.65072602162724,111.8367132096202,-0.131236206738305,-1.590874545012054,1.7734977260437166,-1.7543159487163298,-1.036053039265401,-0.014837043678761253,-1.206231445363093,-0.09065619674662546,1.8010888334529767,-0.526077660672169,2.34890428996357,-0.13192896268270474,-13.428091067208747,-9.548834121638597,-3.7082655667971984,-70.82058981799973,44.144872812339734,-145.54318515223395,0.5,0.0,0.5,0.0,-0.0,0.0
0.1400000000000001,0.4955994982821522,0.11001673864659203,0.4466051087547268,-1.5635451536370657,0.5391371704006467,-1.6877621276844024,-0.0909679598275548,-0.4139485630421962,-0.6873138400389064,2.351000433207061,0.8400027216581596,-1.095697552607586,4.494763344763259,-3.8227146443019056,15.490130837730415,25.018500806104882,-163.86809322384883,111.69174389776373,-0.13364802803317374,-1.591059134420031,1.777089944415271,-1.755296061969657,-1.0316171733023005,-0.015101826386551444,-1.2059106474343697,-0.09229470398856297,1.7961091857772515,-0.4900566266635296,2.217932981550316,-0.13239135389509538,-13.384065884730978,-9.800385590253184,-3.844046749897789,-70.55133561208066,46.43934875454765,-145.83687487606346,0.5,0.0,0.5,0.0,-0.0,0.0
0.1420000000000001,0.49540782819858176,0.1091725052032272,0.44522055632177693,-1.5662049182185505,0.5433470147732131,-1.6913275127579113,-0.09719485390603617,-0.42176209142582877,-0.6916649730176277,2.226289803977521,0.879471774992747,-1.1002686893051357,4.464540626204281,-3.650598385297947,15.737040069433606,27.131498006363714,-165.07563284936452,111.554573340331,-0.13605923448826912,-1.591247674616766,1.7806721737915907,-1.756205754933174,-1.0274452057799683,-0.015367511755019787,-1.2056032275476933,-0.09427009836752766,1.7911146881597904,-0.4548464817585727,2.085983761166104,-0.13284268423417137,-13.341772440917532,-10.053710213095524,-3.9703575735722083,-70.29033161130978,48.76972210537419,-146.14013244968353,0.5,0.0,0.5,0.0,-0.0,0.0
0.1440000000000001,0.49520352832804393,0.10831265807482797,0.4438275807604372,-1.5689434024467273,0.5472899558005935,-1.6949513206432938,-0.10352970624497924,-0.4295311191046529,-0.695907884951168,2.1008030638141557,0.9185385510286965,-1.1043045724177247,4.436968092041113,-3.477359139648021,15.98227100853799,29.28168390412324,-166.27287301896175,111.42488403543575,-0.13846987423307158,-1.5914408424239528,1.784244434885809,-1.757046709920308,-1.023538791486659,-0.015634077227055038,-1.2053198724012342,-0.09658390359340223,1.786130547109231,-0.42047749356699093,1.9532071466547247,-0.13328273601762602,-13.301173265201944,-10.308713983774553,-4.087694566402121,-70.03710781511344,51.133222746095775,-146.4525195631237,0.5,0.0,0.5,0.0,-0.0,0.0
0.1460000000000001,0.4949863821274618,0.10743729418452355,0.44242640143303513,-1.5717574426389422,0.5509643213212012,-1.6986306899048098,-0.10997342315392775,-0.4372523428563883,-0.7000388895099867,1.97468358656053,0.9571841161163036,-1.107784006542019,4.412093816299739,-3.303122949899871,16.225755636070435,31.466294231017486,-167.45936132648922,111.30237077198827,-0.1408800155842223,-1.5916393170417407,1.7878067971030225,-1.757820664142768,-1.0198992876195383,-0.015901499892701208,-1.2050706755753633,-0.09923730889388997,1.7811811086067497,-0.38697711122998973,1.8197519335603,-0.13371133282308462,-13.262238433738148,-10.565309194470364,-4.196552285110304,-69.79121907582667,53.5270873905084,-146.77361227441514,0.5,0.0,0.5,0.0,-0.0,0.0
0.1480000000000001,0.494756171273876,0.10654651694607661,0.44101724531410524,-1.5746437265473414,0.5543687435238929,-1.7023625575718877,-0.11652686102716067,-0.444922606641714,-0.704054139277453,1.8480732304581171,0.9953904564080207,-1.1106877790874545,4.389963083569432,-3.1280138649156264,16.467424188580733,33.682576465402754,-168.63466359818642,111.18674324509368,-0.14328974590806723,-1.5918437794559734,1.7913593768048706,-1.7585294042290784,-1.016527757611171,-0.01616975656932392,-1.2048651619224564,-0.1022312071164298,1.7762898509240932,-0.3543700431552416,1.6857650041836179,-0.13412833831135612,-13.224944951693988,-10.823413968372337,-4.297423240218617,-69.55224270799401,55.94856356121353,-147.10300274521802,0.5,0.0,0.5,0.0,-0.0,0.0
0.1500000000000001,0.4945126757847833,0.10564043596067199,0.4396003472961853,-1.577598804113313,0.5575021575075634,-1.7061436723718808,-0.1231908106067284,-0.4525388975457074,-0.707949643755811,1.7211121437234047,1.0331404178492942,-1.1129987611540781,4.370618148760225,-2.9521538336061752,16.7072054658588,35.927793829757846,-169.79836268095002,111.07772845000525,-0.14569917053530632,-1.5920549119195662,1.7949023355615419,-1.7591747609039792,-1.0134249753241762,-0.01643882387912892,-1.2047123136195488,-0.10556623179631146,1.7714793783356453,-0.32267833745039276,1.551391143497471,-0.134533654902501,-13.189276112560076,-11.082951778934095,-4.390797813763847,-69.31977612701495,58.394913502292965,-147.44030085475146,0.5,0.0,0.5,0.0,-0.0,0.0
0.1520000000000001,0.4942556741691624,0.10471916672281273,0.43817595045936286,-1.5806190991459483,0.5603637993654824,-1.7099706091439946,-0.12996598203920362,-0.46009834092700985,-0.7117212872573637,1.5939385739649796,1.0704176475202822,-1.114701994760862,4.35409801527908,-2.775662619177435,16.945027134421142,38.19922921352529,-170.95005726915684,110.9750728512912,-0.14810841173055303,-1.5922733975055554,1.79843587839276,-1.7597586038326374,-1.0105914295988574,-0.0167086783237942,-1.204620597623355,-0.10924279299458901,1.7667714156091527,-0.29192146432909705,1.416772862659446,-0.13492722233264035,-13.155220838021348,-11.343850959335313,-4.477164164789173,-69.093434546505,60.863418010503715,-147.78513568082423,0.5,0.0,0.5,0.0,-0.0,0.0
0.1540000000000001,0.493984943607488,0.10378283033689403,0.4367443063048645,-1.5837009218449973,0.5629532037853489,-1.7138397843268391,-0.13685299080033977,-0.4675981948554559,-0.7153648466262792,1.4666886824664793,1.1072065368023607,-1.1157847664706204,4.340438232694672,-2.5986577324472844,17.18081602573266,40.49418900218389,-172.08936077913185,110.87854432546565,-0.15051760771907807,-1.5924999197290133,1.8019602519990925,-1.7602828366322156,-1.0080273291373245,-0.016979296356030186,-1.20459799426252,-0.11326111172888015,1.7621868031661785,-0.2621163997891514,1.2820502307664001,-0.13530901611799254,-13.122773002180665,-11.60604420550473,-4.557008118572959,-68.87284876187294,63.351380168820334,-148.1371568378455,0.5,0.0,0.5,0.0,-0.0,0.0
0.1560000000000001,0.4937002601589052,0.10283155324585895,0.43530567495309114,-1.5868404820769757,0.5652702011591781,-1.7177474724007,-0.1438523445509925,-0.4750358439206453,-0.7188760087411562,1.3394963642815187,1.1434921668029443,-1.1162366675394106,4.329670714744993,-2.4212543827376347,17.41449842823597,42.81000679485549,-173.21590027961344,110.78793387684487,-0.15292691177247894,-1.5927351622346937,1.8054757429847168,-1.7607493920520176,-1.005732607706523,-0.01725065444793173,-1.2046520267004357,-0.11762125284015981,1.7577454928121417,-0.23327770990102076,1.1473607154007395,-0.13567904595077213,-13.091930744093677,-11.86946807600697,-4.63081303588147,-68.65766304529805,65.85612896782287,-148.49603566293283,0.5,0.0,0.5,0.0,-0.0,0.0
0.1580000000000001,0.49340139899361857,0.101865466973168,0.43386032530659435,-1.5900339033024995,0.5673149142003608,-1.721689823155605,-0.1509644309769355,-0.4824087924948238,-0.7222503877530675,1.2124930750012293,1.1792602564238321,-1.1160496407941327,4.3218235783302275,-2.243565444810013,17.646000372364526,45.14404699437318,-174.32931548567277,110.70305712780763,-0.15533649135448563,-1.5929798085470115,1.80898267607261,-1.7611602273222078,-1.0037069296416725,-0.017522729156030894,-1.2047897910033423,-0.12232315615893928,1.7534665439465429,-0.20541763509506297,1.0128390324251733,-0.13603735404958117,-13.062695772744593,-12.13406249203742,-4.699059658924927,-68.44753317456806,68.3750228021665,-148.86146624263367,0.5,0.0,0.5,0.0,-0.0,0.0
0.16000000000000011,0.4930881346484584,0.10088470787914475,0.43240853517857714,-1.593277237043742,0.5690877540685388,-1.7256628796477764,-0.15818950665467574,-0.4897146575335844,-0.7254835420182204,1.085807664965265,1.2144971134039824,-1.1152180145118844,4.316921003927857,-2.06570144029199,17.875247907814604,47.49370825544494,-175.42925782250748,110.62375558595906,-0.1577465273275908,-1.5932345418787206,1.8124814123129624,-1.7615173196699976,-1.0019496956308906,-0.01779549718299991,-1.2050179865525985,-0.1273666658545347,1.7493681201762548,-0.178546173894872,0.8786170053909726,-0.13638401348450843,-13.035072668631024,-12.399770240674162,-4.7622259311447195,-68.24212461521374,70.90545283107991,-149.23316627428986,0.5,0.0,0.5,0.0,-0.0,0.0
0.16200000000000012,0.492760241303518,0.09988941693258567,0.43095059138758174,-1.5965664777733501,0.5705894160062268,-1.7296625967002928,-0.1655276869751807,-0.4969511609973163,-0.7285709906886007,0.9595662215937564,1.249189588608711,-1.113738523637756,4.314983117669106,-1.8877705320359457,18.10216737244526,49.85642677832524,-176.51538956439242,110.54989769190644,-0.16015721322068407,-1.593500044994463,1.8159723472854987,-1.7618226620012185,-1.0004600487612203,-0.018068935435989534,-1.2053429465466268,-0.13275155787122592,1.7454674862681754,-0.15267116561044217,0.7448234348351316,-0.13671912649481124,-13.00906818619231,-12.666536484449088,-4.82078678847439,-68.0411108720658,73.44484619354061,-149.61087775768118,0.5,0.0,0.5,0.0,-0.0,0.0
0.16400000000000012,0.49241749307769855,0.09887973949835463,0.4294867898190962,-1.5998975781003535,0.5718208744944437,-1.7336848597988679,-0.17297893714765394,-0.5041161219750736,-0.7315082299279454,0.8338919204224041,1.2833250337759268,-1.111610318734347,4.316025895129186,-1.7098785298600223,18.326685652263976,52.22967943722186,-177.58738305286892,110.48137965245652,-0.16256875455737801,-1.5937770001252125,1.819455909296282,-1.7620782587443702,-0.9992368808059094,-0.0183430210816185,-1.2057706683469762,-0.13847756537482195,1.741781005391679,-0.127798371575836,0.611583977655401,-0.13704282281448446,-12.984690561287831,-12.934308280180836,-4.875213920248857,-67.84417202291371,75.99066907044664,-149.9943675142652,0.5,0.0,0.5,0.0,-0.0,0.0
0.16600000000000012,0.49205967482506363,0.09785632084961829,0.4280177085021035,-1.603269451072134,0.572798985704777,-1.7377288071417731,-0.18053671899944976,-0.5109596502239747,-0.7341534455819615,0.7168103086277873,1.3168295890284196,-1.109679384098684,4.319874576441579,-1.5370996520554954,18.546003907139465,54.45160672559392,-178.6443044916151,110.43385479946049,-0.1649825607278004,-1.5940663051431274,1.8229331770559407,-1.7622839859084523,-0.9982632186389243,-0.018617841305375735,-1.2069030852111984,-0.14465250895741594,1.7386338798293337,-0.10286358204103363,0.48683108349258813,-0.13741011187861754,-12.949783777382924,-13.200769369629358,-4.93259471251552,-67.67067432695052,78.38296772797136,-150.38243013205602,0.5,0.0,0.5,0.0,-0.0,0.0
0.16800000000000012,0.49168693511649963,0.09682032786233051,0.42654435980849564,-1.606674567467941,0.573557662992858,-1.7417922253831524,-0.18801794655240914,-0.5172210969909163,-0.7362898301737991,0.6162524336988114,1.3454850928330788,-1.1090073772829994,4.32277588737798,-1.3747193819192312,18.755835737131022,56.36049223735482,-179.60222717508495,110.42633292694585,-0.1674012481786116,-1.5943692766585573,1.8264079113552392,-1.7624475901204566,-0.997505041423602,-0.018893366018895675,-1.2093437254056032,-0.15148575771492911,1.7373671496492633,-0.08180210600212844,0.37908860766119523,-0.13776235675996984,-12.891909274670972,-13.461148455648875,-5.02103371508742,-67.43780874481995,80.44917987625374,-150.7757621993788,0.5,0.0,0.5,0.0,-0.0,0.0
0.17000000000000012,0.49129925801687535,0.0957718389168485,0.42506710202252596,-1.610103169384882,0.5740955917419126,-1.7458679096276513,-0.19550711657034162,-0.5234442871263918,-0.73824620197781,0.514637961049342,1.3712337554592193,-1.1076708050869457,4.32645958166278,-1.2119002341146299,18.962762615419557,58.3078722201103,-180.4993659484056,110.42060807670212,-0.1698247085068273,-1.594686638579781,1.829881528868575,-1.762577017179383,-0.9969636271485468,-0.01916941688781614,-1.2117301641078477,-0.15868096061185308,1.7368087566679,-0.06471352946329983,0.270707137527568,-0.138025434460234,-12.83846662465078,-13.721154129385102,-5.117312495632376,-67.1434283982206,82.54279354615478,-151.1753914903627,0.5,0.0,0.5,0.0,-0.0,0.0
0.17200000000000013,0.4908965850572637,0.09471094814048635,0.4235862881517507,-1.6135469244320453,0.5744120817001099,-1.7499494031389304,-0.20302533751072058,-0.5296213343183874,-0.7400250922075784,0.4123335770426728,1.394642147437167,-1.1056738637617844,4.331384068760317,-1.0488403828213553,19.16684242606408,60.286350551556254,-181.34654536893626,110.41694372261924,-0.17225288448068196,-1.5950190868357754,1.833355187898067,-1.7626787245288609,-0.996639683531512,-0.019445867127137504,-1.214087986927336,-0.16622412799720132,1.7368295147459651,-0.05085367473893155,0.16197180851741672,-0.13822511966068055,-12.7890804388483,-13.980888436585682,-5.219057474290686,-66.80224703325351,84.65847672207406,-151.58043498212925,0.5,0.0,0.5,0.0,-0.0,0.0
0.17400000000000013,0.49047882414454214,0.09363776327963186,0.42210226813015167,-1.616998680211939,0.5745069948474004,-1.7540308905873168,-0.21058929668792203,-0.5357454106557672,-0.7416279590337466,0.309660115600506,1.4161681845156073,-1.1030271314707758,4.337916112692316,-0.885717854542925,19.368113442876044,62.289450226342545,-182.15251740571057,110.41565964012946,-0.1746857630881461,-1.595367295473796,1.8368298425623122,-1.7627579603755645,-0.996533412490417,-0.019722629036309492,-1.2164393037320609,-0.17410431901030848,1.737327332122642,-0.03961792335183023,0.05313552054749157,-0.13838095458599373,-12.743432025357844,-14.240425410886818,-5.324429173901798,-66.42616888673834,86.79143395362713,-151.99020904832201,0.5,0.0,0.5,0.0,-0.0,0.0
0.17600000000000013,0.490045856807775,0.09255240392913922,0.4206153905757981,-1.6204522648977513,0.5743806842616541,-1.7581071107504955,-0.21821208352273694,-0.5418105682885287,-0.7430554068700167,0.20689972991088162,1.436181329893125,-1.0997462244975642,4.346347617612145,-0.7226937285885242,19.566598456457566,64.31146528934806,-182.92434748096116,110.41711577204521,-0.17712336974813486,-1.5957319215191343,1.8403062864020898,-1.7628189905034775,-0.9966445647725378,-0.019999644278643695,-1.2188033299943872,-0.18231302266918026,1.738221919888784,-0.03051506395641148,-0.05557614106036683,-0.13850762116710133,-12.701249306322255,-14.499817169143318,-5.43202017580041,-66.02480909389323,88.93732516839219,-152.40419172095397,0.5,0.0,0.5,0.0,-0.0,0.0
0.17800000000000013,0.4895975441019739,0.09145500005845109,0.41912600418430945,-1.6239023252671538,0.5740339420639518,-1.7621732851766219,-0.2259038547138112,-0.5478115913188158,-0.7443073652074411,0.10430181526551094,1.4549790178589646,-1.0958507336717642,4.356909220265869,-0.5599147759013832,19.762308126905992,66.34733882072096,-183.66772820481364,110.42169984560255,-0.17956576348326128,-1.5961136088564605,1.8437851874103874,-1.762865282567534,-0.9969724864773034,-0.020276876334122194,-1.2211968675632137,-0.19084366866303118,1.7394505041487782,-0.023146032028259905,-0.16396085238281713,-0.1386160277392494,-12.662298433616398,-14.759098576822621,-5.540772321488966,-65.60591710559771,91.09219881855046,-152.82199237384893,0.5,0.0,0.5,0.0,-0.0,0.0
0.18000000000000013,0.4891337314270508,0.09034569078437807,0.41763445882453737,-1.6273441951494216,0.5734679548484682,-1.766225059924069,-0.2336723720978021,-0.5537438727169613,-0.7453832345319561,0.0020879000912537218,1.472800006957579,-1.0913633841046677,4.369781307974685,-0.39751563462828443,19.95524370643915,68.39256241246815,-184.38723436826083,110.42981794824503,-0.18201303288831475,-1.5965129913363147,1.8472671161135215,-1.7628996558246455,-0.9975161589025188,-0.02055430466908452,-1.2236347025267356,-0.1996912399271845,1.740964351566997,-0.017186628555755756,-0.27183621260769136,-0.13871416748116186,-12.626376810516529,-15.018290821553105,-5.64990950871648,-65.17572121120806,93.25243686608157,-153.24332735568885,0.5,0.0,0.5,0.0,-0.0,0.0
0.18200000000000013,0.48865425246956784,0.08922462334912723,0.41614110639059443,-1.6307737885430948,0.5726842652783053,-1.7702584579899332,-0.24152343786950695,-0.5596033119495453,-0.746282005511421,-0.09954431456783353,1.4898352382296327,-1.0863093719183572,4.385102958641492,-0.23562060379423855,20.145399250521365,70.44309335668432,-185.08653021802994,110.4418874166087,-0.18446529275773996,-1.5969306952669768,1.8507525680218464,-1.7629244027739501,-0.9982742328900587,-0.02083192025835969,-1.2261299347126107,-0.20885196533106043,1.7427259541625106,-0.012373474652339428,-0.37903699376993055,-0.13880779463758658,-12.593307277865597,-15.277404149529303,-5.75888312530418,-64.73920889926639,95.41470952521898,-153.66800038507765,0.5,0.0,0.5,0.0,-0.0,0.0
0.18400000000000014,0.48815893243462044,0.08809195226932678,0.4146463014542507,-1.634187512721881,0.5716847387606605,-1.7742698404508481,-0.24946124698327835,-0.565386229752614,-0.7470023565060309,-0.2004176176474998,1.5062366662730449,-1.0807158405494433,4.402979202013918,-0.07434512224340217,20.332763414450625,72.49528641654479,-185.76853797035628,110.45833151835934,-0.18692268125932318,-1.5973673414181255,1.8542419815188318,-1.7629413879686162,-0.999245058636925,-0.021109722169441524,-1.228694250791617,-0.21832307557436448,1.7447067484926568,-0.008492597333011264,-0.4854128734331884,-0.13890095554091678,-12.562933265452907,-15.536439958056793,-5.867327726240898,-64.30035504588088,97.57593803190976,-154.09588675089225,0.5,0.0,0.5,0.0,-0.0,0.0
0.18600000000000014,0.4876475907028488,0.08694783862768993,0.4131504017534491,-1.6375821975118572,0.5704715343087123,-1.7782558746806572,-0.2574886726855455,-0.5710892971047848,-0.747542733514801,-0.30037252896322314,1.5221244432108394,-1.0746114665932458,4.4234869237148935,0.08620301180231138,20.517320914360056,74.54583759329219,-186.43557484063743,110.47957551131833,-0.1893853575609618,-1.5978235466362138,1.8577357520549727,-1.7629521282774225,-1.0004267117639245,-0.021387714977750414,-1.2313381508193129,-0.22810260904413648,1.7468852680704787,-0.005370154403160427,-0.5908265634997202,-0.1389964041544455,-12.535114744330265,-15.795392391887772,-5.975025014597428,-63.86230768554991,99.73326400587902,-154.52692054837843,0.5,0.0,0.5,0.0,-0.0,0.0
0.18800000000000014,0.48712004302155154,0.08579244948382378,0.41165376854595515,-1.6409550376296942,0.5690470788589037,-1.7822135082928228,-0.2656074980294471,-0.5767094759711906,-0.7479014158945604,-0.3992650160416311,1.5375927643956324,-1.0680261312227224,4.446679671286499,0.24592263500578682,20.699053716712534,76.59173775307546,-187.0894645004563,110.50604375080694,-0.19185349983354788,-1.598299925150638,1.861234243349087,-1.762957858073819,-1.0018170162910485,-0.021665906829694256,-1.2340711362930394,-0.23818925721207215,1.7492456470570934,-0.0028648981982108772,-0.6951522635620001,-0.13909592597192114,-12.509724844779319,-16.0542495567976,-6.081874555217517,-63.42753929862464,101.88402421903426,-154.9610843331124,0.5,0.0,0.5,0.0,-0.0,0.0
0.19000000000000014,0.4865761033179069,0.08462595738468438,0.41015676685168667,-1.6443035455489607,0.5674140444459073,-1.7861399476912883,-0.27381860373663003,-0.5822439698169524,-0.7480765705514832,-0.4969646023137206,1.5527146267646819,-1.0609906581625763,4.472591571499061,0.40471838953782324,20.87794200815971,78.63023435151622,-187.73162776380508,110.53815758672097,-0.1943273035662592,-1.5987970896333363,1.864737796166722,-1.7629595821791053,-1.0034135650507947,-0.02194430800841254,-1.23690186635566,-0.24858224134920556,1.7517764088174632,-0.000862052643200416,-0.7982743798731671,-0.1392005893591417,-12.486647028573072,-16.31299443803853,-6.187869948501621,-62.99797006714685,104.02572979124115,-155.39840069767519,0.5,0.0,0.5,0.0,-0.0,0.0
0.19200000000000014,0.4860155852054045,0.08344853995847339,0.40865976560283523,-1.6476255128335628,0.5655753277477364,-1.790032640310114,-0.282122120773311,-0.5876901822424818,-0.7480662967859102,-0.5933527968836809,1.5675457036934366,-1.0535366032022269,4.501240527964432,0.5625000392862063,21.053964987668223,80.65879980389013,-188.3631564027193,110.57633384888788,-0.19680698014143802,-1.5993156520614416,1.8682467351377654,-1.7629581188569545,-1.0052137379738244,-0.022222929887606095,-1.2398382875894058,-0.25928121405259097,1.7544694855217668,0.0007316610753890574,-0.900086461514825,-0.13931093959677637,-12.465772723918926,-16.57160559165446,-6.293079433241889,-62.57506834410168,106.15604900712941,-155.83892537509064,0.5,0.0,0.5,0.0,-0.0,0.0
0.19400000000000014,0.4854383032409396,0.08226037957847188,0.4071631377173151,-1.650918978263345,0.5635340316040689,-1.7938892597862428,-0.2905175543994954,-0.5930456823847201,-0.7478686635490309,-0.6883217883474415,1.5821275019510468,-1.0456960834516147,4.5326308356996154,0.7191819063875275,21.227101514706973,82.67510530545279,-188.9848732600294,110.62098376497192,-0.19929275562517504,-1.5998562244222956,1.8717613739881187,-1.7629541347260704,-1.007214718601883,-0.022501784183213552,-1.242887741868508,-0.2702861804269851,1.757319425176695,0.001992065442006632,-1.0004903140292616,-0.13942714780372828,-12.44699934769747,-16.830057661591063,-6.397630083238575,-62.15993259915609,108.27279309092408,-156.28274155315796,0.5,0.0,0.5,0.0,-0.0,0.0
0.19600000000000015,0.4848440739790061,0.08106166308553296,0.4056672601081825,-1.6541822013926124,0.5612934481850891,-1.7977076934466543,-0.2990038851541592,-0.59830817596882,-0.7474817405278346,-0.7817733552904498,1.5964899352880018,-1.03750163712004,4.566755323161577,0.8746824073519672,21.39733064071477,84.67699911866053,-189.59738123187634,110.67251219153809,-0.2017848697370562,-1.6004194192919499,1.8752820194895914,-1.7629481731078633,-1.0094135091177987,-0.022780882432102176,-1.2460570559405861,-0.2815974348271635,1.7603227507362966,0.0029808091035086366,-1.0993952579578998,-0.13954912444431106,-12.430228652962768,-17.0883217639454,-6.501694920998389,-61.753358305103134,110.37390439505691,-156.72995514835978,0.5,0.0,0.5,0.0,-0.0,0.0
0.19800000000000015,0.4842327168605111,0.07985258155978199,0.4041725136393397,-1.6574136404406847,0.5588570435488429,-1.8014860316054786,-0.30757965119361874,-0.6034754810924928,-0.7469036241980104,-0.8736179544960656,1.6106534239412045,-1.028986106648723,4.603597111184459,1.0289236717758197,21.56463204574938,86.66248851934138,-190.2011032092876,110.73131706758178,-0.2042835749685623,-1.6010058503117632,1.8788089743748686,-1.7629406770416076,-1.011806944129083,-0.02306023564237112,-1.249352615753061,-0.2932155099067178,1.7634774426386375,0.0037480331278328866,-1.1967175056420531,-0.1396766051344724,-12.415365350607004,-17.346365770701688,-6.605482400316198,-61.35589257950687,112.45744655648434,-157.18069083996403,0.5,0.0,0.5,0.0,-0.0,0.0
0.20000000000000015,0.4836040549665388,0.0786333301335749,0.40267928303596184,-1.660611933624931,0.5562284433745326,-1.8052225582619592,-0.31624301555609247,-0.6085455079876534,-0.746132459761138,-0.9637739548395966,1.624630608833521,-1.020182539651989,4.64313106121115,1.18183122969144,21.72898639792573,88.62972473853227,-190.7963146755136,110.79778902232619,-0.20678913582457498,-1.601616132582534,1.8823425394179496,-1.762932007968392,-1.0143917033981025,-0.02333985407210761,-1.2527804280063326,-0.3051411353853372,1.766782521540476,0.00433453660787845,-1.2923796345097962,-0.13980921486824618,-12.402315963058992,-17.604154518311965,-6.709227813623844,-60.96787886775938,114.52159625565363,-157.63508870666732,0.5,0.0,0.5,0.0,-0.0,0.0
0.20200000000000015,0.4829579156615608,0.07740410783900377,0.4011879567565816,-1.663775883219605,0.5534114196993749,-1.8089157428696294,-0.32499182124338394,-0.6135162421372058,-0.7451664597024846,-1.0521669905752817,1.638427752585292,-1.0111241034024985,4.685324971438005,1.3333337561074057,21.890375649789718,90.57699035596157,-191.38317033696157,110.87231108659809,-0.2093018281665326,-1.6022508829914859,1.8858830148427872,-1.76292246089732,-1.017164323676249,-0.023619747103126438,-1.2563461709788022,-0.3173752044759718,1.7702377124187894,0.004773535535981458,-1.3863101390733013,-0.1399465155094124,-12.390987875221988,-17.8616499609941,-6.8131862643325825,-60.58949352430521,116.56463627979556,-158.09330134154703,0.5,0.0,0.5,0.0,-0.0,0.0
0.20400000000000015,0.4822941311458881,0.07616511748425632,0.3996989268325474,-1.6669044417651344,0.5504098785192246,-1.8125642329131675,-0.33382363645920793,-0.6183857302339384,-0.7440039195608205,-1.138729412450855,1.6520458859228513,-1.001844009600895,4.730140568349547,1.4833628633380478,22.048783282987745,92.50268869938232,-191.96172590660612,110.95525847063033,-0.21182193863915733,-1.6029107204841553,1.8894307011923286,-1.7629122767147773,-1.0201212097705377,-0.023899923183872615,-1.2600552363123618,-0.3299187463347514,1.7738431747707213,0.005092091271321188,-1.478443047144292,-0.14008804037308806,-12.381288553848337,-18.118811284325353,-6.917626912718248,-60.22077579978337,118.5849496471,-158.5554913478344,0.5,0.0,0.5,0.0,-0.0,0.0
0.20600000000000016,0.4816125389333374,0.07491656555397894,0.3982125886796002,-1.6699966999679714,0.5472278481395012,-1.816166847084291,-0.3427357918977163,-0.6231520685577693,-0.7426432313850723,-1.2233998189788173,1.6654817470770116,-0.9923754469551328,4.7775343321064145,1.6318529333939011,22.20419451035039,94.40533488478837,-192.53195594845053,111.04699838151518,-0.21434976416546966,-1.6035962662906205,1.89298589976539,-1.7629016521735503,-1.0232586449474705,-0.024180389821688495,-1.2639127631561708,-0.3427729032326183,1.7775992865306836,0.0053122706134908085,-1.5687175884663933,-0.14023331890793983,-12.373124911440359,-18.375594991319545,-7.022828259246353,-59.86165245827705,120.58101459341195,-159.02182913931836,0.5,0.0,0.5,0.0,-0.0,0.0
0.20800000000000016,0.48091298226700757,0.07365866212948796,0.39672934088553263,-1.6730518759253017,0.5438694681842011,-1.8197225688934675,-0.35172541161492155,-0.6278133934205518,-0.7410828952589605,-1.3061226533985602,1.6787285528361773,-0.9827515197049276,4.827458186952692,1.7787409840685324,22.356596442706028,96.28354819898739,-193.09376852082158,111.1478898614308,-0.21688561149712846,-1.6043081441134524,1.8965489127087163,-1.7628907479978198,-1.0265728007598025,-0.024461153609370876,-1.267923665829396,-0.35593891141593875,1.781506471663162,0.005452087865290823,-1.657077906165944,-0.14038189384119001,-12.366402794751346,-18.631954970482546,-7.129074274074988,-59.51195801853932,122.5514002600238,-159.4924909861179,0.5,0.0,0.5,0.0,-0.0,0.0
0.21000000000000016,0.48019531048356495,0.07239162082525044,0.39524958497726026,-1.6760693053856532,0.5403389791878612,-1.8232305405916815,-0.36078943872364355,-0.6323678733872008,-0.7393215291994947,-1.386847854498265,1.6917766326667856,-0.9730051906986045,4.879860081900623,1.9239665634678538,22.505978226292672,98.13604558057447,-193.64701721759766,111.25828363371491,-0.21942979680906896,-1.6050469802831278,1.9001200428352885,-1.7628796954581878,-1.0300597463662495,-0.024742220274637163,-1.2720926559702497,-0.36941808483773475,1.785565063286108,0.005526269815983346,-1.743472803223546,-0.14053333263314302,-12.36102658122304,-18.88784255322988,-7.236651217781922,-59.171451426031695,124.49476295140173,-159.96765725997227,0.5,0.0,0.5,0.0,-0.0,0.0
0.21200000000000016,0.47945937933441113,0.07111565873853891,0.39377372517013637,-1.679048432818824,0.5366407127090582,-1.8266900573072347,-0.36992465691609255,-0.6368137030304483,-0.7373578776747425,-1.4655305516290387,1.7046139514233647,-0.9631692279926009,4.934684482166635,2.06747166863183,22.65233115547259,99.96163600011269,-194.19151109383645,111.37852194829375,-0.22198264532903106,-1.6058134038853529,1.903699593226722,-1.7628686017043966,-1.0337154574015266,-0.02502359474399536,-1.276424259981042,-0.3832118011125981,1.789775195716816,0.005546876895524898,-1.8278555176384816,-0.1406872346790987,-12.356898869325873,-19.1432065663382,-7.345845027780104,-58.83982981079973,126.4098428563917,-160.44751084374423,0.5,0.0,0.5,0.0,-0.0,0.0
0.21400000000000016,0.4787050512704803,0.06983099640956497,0.39230216810193247,-1.6819888031191044,0.5327790819149953,-1.830100561327621,-0.3791277086266414,-0.6411490980160941,-0.7351908189378102,-1.5421307960183652,1.7172265413860763,-0.9532761542214483,4.991872787955831,2.2092006846320036,22.795648764520813,101.75921557701811,-194.72702287081995,111.50893842124938,-0.22454449099393184,-1.6066080468637238,1.907287866666878,-1.7628575540893778,-1.0375358244438393,-0.025305281214741283,-1.2809228324503874,-0.3973214891854295,1.7941367200780085,0.005523807509353942,-1.910183521156366,-0.14084323537296006,-12.35392025093271,-19.397993383766142,-7.456939168693843,-58.516739862999316,128.29546114663623,-160.93223567811674,0.5,0.0,0.5,0.0,-0.0,0.0
0.21600000000000016,0.4779321956960859,0.06853785778973641,0.39083532255358444,-1.6848900538066374,0.5287585725955002,-1.8334616364768246,-0.38839511049213854,-0.6453722913477864,-0.7328193713350257,-1.6166133219437504,1.7295988604772663,-0.9433581981969819,5.051363694052112,2.349100341123485,22.93592690150854,103.5277633006784,-195.25329574126008,111.64985786567752,-0.2271156761261894,-1.6074315441003515,1.9108851649451015,-1.7628466236743925,-1.0415166611186504,-0.025587283230524303,-1.2855925661287868,-0.41174861831380843,1.798649139111747,0.0054652074926785825,-1.9904183374055546,-0.14100100789151096,-12.351989155612522,-19.652146981090084,-7.570212864253143,-58.20178725793528,130.1505173823492,-161.42201542492478,0.5,0.0,0.5,0.0,-0.0,0.0
0.21800000000000017,0.47714068919617053,0.06723647021596932,0.38937359915853903,-1.6877519076246004,0.5245837345717548,-1.8367730025546685,-0.39772326664129837,-0.6494815306265472,-0.7302426987151344,-1.6889473325168276,1.7417140903516388,-0.9334472483546428,5.113093501125066,2.487119683811958,23.07316378670192,105.26633724788785,-195.7700490351001,111.80159611268097,-0.22969655112408555,-1.6082845334764544,1.9144917880604364,-1.762835868069385,-1.0456537118708107,-0.025869603757239235,-1.2904374989480725,-0.426494688051482,1.8033115576674366,0.005377802503754928,-2.0685253760801223,-0.14116026335746573,-12.351001758143688,-19.905608994937253,-7.685939643866764,-57.894544481425754,131.97398716895916,-161.91703223153758,0.5,0.0,0.5,0.0,-0.0,0.0
0.22000000000000017,0.4763304157404488,0.065927064389232,0.3879174101023328,-1.6905741654561859,0.5202591734706377,-1.8400345098177482,-0.4071084802427183,-0.6534750762014958,-0.7274601150413175,-1.7591063058001195,1.7535543854901958,-0.9235748077839521,5.176996387601857,2.6232100586858014,23.207360057413716,106.97407120873537,-196.27698295736894,111.96445982252234,-0.23228747416109558,-1.6091676559144354,1.918108033352424,-1.7628253337337267,-1.0499426594317105,-0.026152245257002635,-1.295461518505009,-0.44156121899054,1.8081226459938735,0.00526716782916177,-2.144473780449951,-0.1413207498817001,-12.35085194173032,-20.158318789106726,-7.804386149666165,-57.594557340584416,133.76492001895764,-162.41746558456381,0.5,0.0,0.5,0.0,-0.0,0.0
0.22200000000000017,0.475501266867235,0.06460987435570661,0.3864671688138585,-1.6933566995062423,0.5157895428400012,-1.8432461334915835,-0.41654696365834015,-0.6573512001055122,-0.7244710882878375,-1.827067817771511,1.7651010823445243,-0.9137719506686,5.243004649278367,2.757325107178561,23.338518800860605,108.65017164943094,-196.77378256977227,112.13874628675285,-0.23488881088983912,-1.6100815554025871,1.9217341945794306,-1.7628150578390154,-1.0543791320037077,-0.026435209758726614,-1.3006683643717718,-0.45694974407580685,1.813080613503324,0.005137947355718903,-2.218236285998618,-0.14148225086198934,-12.351431310331607,-20.410213528502478,-7.925811160026328,-57.3013503918732,135.52243738206457,-162.92349124404672,0.5,0.0,0.5,0.0,-0.0,0.0
0.22400000000000017,0.4746531418491882,0.06328513748914154,0.3850232896496474,-1.696099446708891,0.5111795365837333,-1.8464079683113392,-0.42603484748203196,-0.6611081856835985,-0.7212752436871599,-1.8928133792975461,1.7763348758851902,-0.9040692800265807,5.311048912486902,2.8894207706809194,23.466645576269087,110.29391495387088,-197.2601211553955,112.32474322264638,-0.23750093414693632,-1.6110268790032862,1.9253705609616543,-1.762805069776504,-1.0589587101805278,-0.026718498924365956,-1.3060616285486044,-0.4726618003495896,1.818183191111818,0.004994031255680495,-2.2897890884100915,-0.14164458281967054,-12.352629244311716,-20.661228261563718,-8.050464793835122,-57.014431475118585,137.2457308138952,-163.4352802515191,0.5,0.0,0.5,0.0,-0.0,0.0
0.22600000000000017,0.47378594784275196,0.06195309447312386,0.3835861875723804,-1.698802402335259,0.5064338816982752,-1.849520223094243,-0.4355681886884889,-0.6647443278331044,-0.7178723663806583,-1.9563282848020374,1.7872359695323137,-0.8944968866880008,5.381058325536085,3.0194553030266658,23.591748427228158,111.90464489656588,-197.73566307966146,112.52272856157589,-0.24012422365560587,-1.612004276845327,1.9290174162028813,-1.7627953923762272,-1.0636769336194556,-0.027002114110328712,-1.3116447543347816,-0.4886989210204409,1.8234276206134603,0.004838700138456047,-2.3591117194638986,-0.1418075929813786,-12.354332994239655,-20.91129601150415,-8.178587866460738,-56.73329550726304,138.93406025901643,-163.95299800690026,0.5,0.0,0.5,0.0,-0.0,0.0
0.22800000000000017,0.47289960002270265,0.06061398928214773,0.38215627782475486,-1.701465613785352,0.5015573312945256,-1.8525832153509867,-0.44514297807338565,-0.668257933784264,-0.7142624035159122,-2.017601470743166,1.797784203328313,-0.8850843094819386,5.45296073224436,3.147389289742584,23.713837885090648,113.48177030834307,-198.20006623936942,112.73297023312969,-0.24275906572332873,-1.6130144021008825,1.9326750375025477,-1.7627860428922961,-1.0685293074787972,-0.02728605642384033,-1.317421033861433,-0.5050626277777689,1.8288106498331995,0.004674741965571654,-2.426186929670793,-0.14197115675580893,-12.356427808205849,-21.16034787639392,-8.310411373765277,-56.457427661312366,140.58675242885977,-164.47680341040746,0.5,0.0,0.5,0.0,-0.0,0.0
0.23000000000000018,0.47199402170293225,0.059268069160480975,0.38073397559976385,-1.704089174555528,0.49655465789089215,-1.8555973659462184,-0.45475514712975756,-0.6716473243570632,-0.7104454658256342,-2.0766253823581358,1.8079591643038804,-0.8758604966276308,5.5266828306624545,3.2731856729861804,23.832926964070847,115.02476290335099,-198.6529841743302,112.95572594682686,-0.24540585293233383,-1.6140579109474753,1.9363436945676173,-1.7627770337986108,-1.0735113086321957,-0.027570326774263545,-1.3233936045025556,-0.5217544232964292,1.8343285325348384,0.004504546842659826,-2.4910005766993164,-0.14213517521160765,-12.358797088448886,-21.408313137870948,-8.446156084869571,-56.18630603306265,142.20319925861466,-165.00684806648093,0.5,0.0,0.5,0.0,-0.0,0.0
0.23200000000000018,0.4710691444443552,0.05791558459794802,0.37931969570838325,-1.7066732183785607,0.4914306469647216,-1.8585631938199882,-0.46440057447635896,-0.674910835636664,-0.7064218287169819,-2.133395847414354,1.8177402822491884,-0.8668537683417017,5.602150319489869,3.396809781203844,23.949031148564345,116.53315524165487,-199.09406790204437,113.1912429732811,-0.248064983821049,-1.6151354625152612,1.940023648632116,-1.7627683734309276,-1.0786183916698322,-0.027854925919521937,-1.3295654443575853,-0.5387757838929762,1.839977032249322,0.00433018384159856,-2.553541518818307,-0.14229957262919662,-12.361322573459951,-21.65511937809883,-8.5860322278992,-55.919403879626046,143.78285643015684,-165.5432755473135,0.5,0.0,0.5,0.0,-0.0,0.0
0.23400000000000018,0.47012490815064606,0.05655678930185304,0.3779138522456151,-1.7092179135372059,0.48619009075059294,-1.8614813107828918,-0.4740750919299935,-0.6780468210147195,-0.7021919328951486,-2.187911955932306,1.8271069135011764,-0.8580917806842648,5.6792880342111225,3.5182293626305903,24.062168373121835,118.0065388063611,-199.52296752444113,113.43975792661399,-0.25073686255500777,-1.6162477188198792,1.9437151514907978,-1.762760066504476,-1.0838459946952717,-0.028139854507870463,-1.3359393669793787,-0.5561281523089985,1.8457514293408634,0.00415346322576671,-2.613801512719707,-0.14246429417426337,-12.363884542035073,-21.90069260442639,-8.730239255767582,-55.65619149879781,145.32524195038195,-166.08622071395527,0.5,0.0,0.5,0.0,-0.0,0.0
0.23600000000000018,0.4691612611523685,0.055191940164367286,0.37651685825579395,-1.7117234573548705,0.4808377822749579,-1.8643524163978558,-0.4837744902944596,-0.681053653548144,-0.6977563845413888,-2.2401759450276795,1.8360384148686608,-0.8496014906740257,5.758020074586839,3.63741462182492,24.172358995435644,119.44456217795482,-199.93933364640625,113.70149654983861,-0.25342189858601716,-1.6173953446810945,1.9474184445523017,-1.7627521145308405,-1.0891895449256652,-0.02842511311531428,-1.3425180155046945,-0.5738129306076174,1.8516465307519663,0.00397598681783275,-2.671775115196746,-0.14262930372190957,-12.366362036014936,-22.144957381096564,-8.878965681348493,-55.39613780614461,146.82993477616307,-166.63580909320586,0.5,0.0,0.5,0.0,-0.0,0.0
0.23800000000000018,0.46817816027994463,0.053821297224791106,0.37512912539803156,-1.7141900708686688,0.47537850961751094,-1.86717729296117,-0.4934945249230501,-0.6839297285904712,-0.6931159550628123,-2.290193088167305,1.8445142094189022,-0.8414091227070072,5.838269924817868,3.754338258493524,24.279625762642812,120.84692929155204,-200.34281863827337,113.97667350484606,-0.25612050629867655,-1.6185790076274493,1.9511337579162384,-1.7627445161533704,-1.094644464102146,-0.028710702279007762,-1.3493038563296904,-0.591831473177418,1.857656681968364,0.0037991887350152555,-2.7274595882404213,-0.14279458184674118,-12.368633098672861,-22.38783696726246,-9.032388973233314,-55.13871165685738,148.29657347859492,-167.19215630863962,0.5,0.0,0.5,0.0,-0.0,0.0
0.24000000000000019,0.4671755709258174,0.052445123626191165,0.3737510636126368,-1.716617993691059,0.46981705039043664,-1.8699568005946354,-0.5032309210987342,-0.6866734666539168,-0.6882715804292081,-2.337971588251776,1.8525138455250518,-0.8335401363161898,5.919960567441693,3.868975507910255,24.383993771209184,122.21339776519144,-200.73307776831814,114.26549216853076,-0.2588331046435968,-1.6197993777871378,1.95486130947789,-1.7627372674167725,-1.1002061737165194,-0.02899662252697618,-1.3562991724601363,-0.6101850798442748,1.8637757808257276,0.0036243682989591038,-2.7808548071867465,-0.14296012398420999,-12.370575025924508,-22.629253460496606,-9.190675504732141,-54.88338295145492,149.7248549403431,-167.75536756418143,0.5,0.0,0.5,0.0,-0.0,0.0
0.2420000000000002,0.46615346709610356,0.05106368556598947,0.37238308078933113,-1.7190074790665544,0.46415816642735486,-1.8726918724596506,-0.5129793792657604,-0.6892833164628949,-0.6832243601107104,-2.3835224740327616,1.8600170503097702,-0.8260191953106729,6.0030145918101585,3.9813041822786133,24.485490420629105,123.54377728923787,-201.10977022629987,114.56814443649783,-0.2615601167569061,-1.62105712776533,1.9586013040635806,-1.7627303619835963,-1.1058701000597235,-0.029282874404499254,-1.3635060566546464,-0.6288749890961204,1.8699972928453408,0.003452716588094825,-2.8319631716020526,-0.14312593876153634,-12.372064627703857,-22.869127944942097,-9.353980549988254,-54.62962355793607,151.1145330808051,-168.32553717865247,0.5,0.0,0.5,0.0,-0.0,0.0
0.2440000000000002,0.46511183145197016,0.04967725224015928,0.37102558243804523,-1.721358789129866,0.4584065986744186,-1.875383510102832,-0.5227355801379596,-0.6917577581619667,-0.6779755556291338,-2.426859499449646,1.8670037784049922,-0.8188701383334753,6.087354297826344,4.091304712424151,24.58414536115783,124.83792806853027,-201.47256005503692,114.88481053570405,-0.26430196956584395,-1.622352932508188,1.9623539325992578,-1.7627237913079468,-1.1116316790969976,-0.02956945849748267,-1.3709264044689369,-0.6479023714290052,1.876314267838675,0.0032853378248357094,-2.8807895186370454,-0.14329204649170846,-12.37297849701746,-23.107380643201157,-9.522448322009712,-54.376908077754834,152.46541760450089,-168.90274816970035,0.5,0.0,0.5,0.0,-0.0,0.0
0.2460000000000002,0.4640506553409448,0.048286095780752325,0.3696789713630629,-1.723672190371341,0.4525670622765956,-1.8780327789413682,-0.5324951897021751,-0.6940953066432735,-0.6725265887352605,-2.4679990455318914,1.8734542567721963,-0.8121159508769966,6.172901795478289,4.198960189238161,24.679990435781953,126.09575931016404,-201.82111700369805,115.21565884730083,-0.2670590933804434,-1.623687469153838,1.9661193713143845,-1.7627175447748142,-1.1174863611742265,-0.02985637545312459,-1.3785619072997255,-0.6672683228250387,1.8827193575633305,0.003123266566218588,-2.9273410386145238,-0.14345847782095983,-12.373193284345653,-23.34393107106363,-9.696212048197744,-54.12471447868435,153.77737276866478,-169.48707188548843,0.5,0.0,0.5,0.0,-0.0,0.0
0.2480000000000002,0.46296993881833187,0.04689049118655271,0.3683436473412554,-1.7259479493148417,0.44664424185269436,-1.8806408038948819,-0.5422538641296876,-0.6962945149603251,-0.6668790392240939,-2.5069600245634693,1.879349026184179,-0.8057787387947122,6.2595791005944825,4.304256404325109,24.773059616628597,127.3172277508082,-202.15511731381065,115.56084574087261,-0.2698319214714799,-1.6250614168705866,1.9698977809828786,-1.7627116098118445,-1.1234296155595123,-0.030143625998161085,-1.3864140455182201,-0.6869738583742349,1.8892048342470618,0.002967481484894615,-2.97162719264286,-0.14362527251824686,-12.37258597519412,-23.57869819414298,-9.875394079552645,-53.87252461418309,155.05031616644573,-170.0785676824804,0.5,0.0,0.5,0.0,-0.0,0.0
0.25000000000000017,0.46186969065889977,0.045490716246714705,0.36702000680512337,-1.728186328412343,0.4406427869532319,-1.8832087651691,-0.5520072546040355,-0.6983539777967562,-0.6610346424001226,-2.543763786246306,1.8846689798523137,-0.7998797033469989,6.347308227153085,4.407181889336101,24.863388936014587,128.502336218273,-202.47424444679626,115.9205154211898,-0.27262088963502995,-1.6264754566826927,1.973689306202527,-1.762705971979085,-1.1294569348236503,-0.03043121095494962,-1.3944840817750437,-0.7070199060530183,1.895762609824144,0.0028189163798034386,-3.01365963206905,-0.14379247839426784,-12.37103416874159,-23.811600585509584,-10.06010603022462,-53.61982464599794,156.28421752247468,-170.6772826476149,0.5,0.0,0.5,0.0,-0.0,0.0
0.25200000000000017,0.46074992835899015,0.0440870514573056,0.36570844253133955,-1.7303875821585386,0.43456730769572127,-1.8857378941951912,-0.5617510120700342,-0.700272334960288,-0.6549952862048383,-2.5784340256330145,1.8893953995876056,-0.7944391178181295,6.43601127640238,4.507727953499153,24.951016412340763,129.65113222271066,-202.77818976007111,116.29479978853544,-0.2754264357441316,-1.6279302712840373,1.977494074714028,-1.762700615041213,-1.1355638390628557,-0.030719131255624216,-1.4027730545508226,-0.7274073006723655,1.902384255750456,0.002678468936016211,-3.0534521196027136,-0.1439601503372989,-12.368416355661829,-24.042556583408576,-10.250448944470708,-53.36610538440081,157.47909749783756,-171.28325136313984,0.5,0.0,0.5,0.0,-0.0,0.0
0.25400000000000017,0.4596106781291981,0.042679779930731965,0.36440934333546515,-1.7325519534277267,0.4284223705724486,-1.888229469727229,-0.5714807919059259,-0.7020482748737022,-0.6487630080191199,-2.610996692626706,1.8935099898057024,-0.7894763057404967,6.5256105229892585,4.605888718885138,25.03598197104384,130.7637065733757,-203.06665313730713,116.68381831360415,-0.2782489992881705,-1.629426544840054,1.9813121967605907,-1.7626955210259012,-1.1417458799667695,-0.031007387954530743,-1.4112817720194295,-0.7481367780083334,1.9090610232813796,0.00254700765589107,-3.0910204519568527,-0.14412834945326342,-12.364612193316798,-24.271484448172913,-10.446513488370744,-53.11086255853144,158.63502650172913,-171.89649571233127,0.5,0.0,0.5,0.0,-0.0,0.0
0.25600000000000017,0.4584519748777733,0.04126918729808349,0.36312309377348095,-1.7346796700342342,0.42221249442625775,-1.8906848140989367,-0.581192258518351,-0.7036805380361781,-0.6423399911535786,-2.6414799028688813,1.8969949096220617,-0.7850096207609684,6.616028498243804,4.701661152976014,25.118327360827923,131.84019201732673,-203.33934357727196,117.08767792791488,-0.2810890209007384,-1.6309649627783083,1.9851437644888124,-1.762690670271292,-1.1479986447344963,-0.0312959822391267,-1.4200108062839554,-0.7692089691271725,1.9157838641108194,0.0024253773046119297,-3.1263823838633886,-0.14429714229797802,-12.35950277665679,-24.498302517461397,-10.648380163915117,-52.853597027692565,159.7521235072614,-172.51702472432902,0.5,0.0,0.5,0.0,-0.0,0.0
0.2580000000000002,0.45727386218489696,0.03985556160448146,0.36185007385075185,-1.736770941516609,0.4159421465903277,-1.8931052896396217,-0.5908810898580585,-0.7051679204298531,-0.6357285610405172,-2.6699138498561745,1.8998328032312244,-0.7810564281830423,6.7071880707292095,4.795045098130082,25.198096065408695,132.88076189683292,-203.59597974471987,117.5064729306304,-0.28394694187681613,-1.632546211568141,1.9889888513913743,-1.7626860414649939,-1.1543177598411603,-0.03158491543950712,-1.4289604880388522,-0.7906243949163873,1.9225434512810045,0.0023144031489643188,-3.159557553332019,-0.14446660019021323,-12.352970903277656,-24.722929358985255,-10.85611954325353,-52.59381494311247,160.83055486907318,-173.14483445630026,0.5,0.0,0.5,0.0,-0.0,0.0
0.2600000000000002,0.45607639226799784,0.03843919319756767,0.3605906587390141,-1.7388259561448702,0.40961573918833416,-1.8954922952481037,-0.6005429818529474,-0.7065092768479806,-0.6289311811417652,-2.696330718143932,1.9020068287214131,-0.7776330882170321,6.7990125241349055,4.886043297567303,25.275333211015024,133.88562882258148,-203.83629048603544,117.94028491262145,-0.28682320368022673,-1.6341709784898053,1.992847511791938,-1.7626816116765618,-1.160698894657221,-0.03187418903669714,-1.4381309017052972,-0.8123834608320816,1.9293302002818347,0.002214894216025341,-3.190567408030387,-0.1446367985950101,-12.344901331207673,-24.945283919919905,-11.069792521055522,-52.331027868562074,161.87053314056013,-173.7799079111512,0.5,0.0,0.5,0.0,-0.0,0.0
0.2620000000000002,0.4548596259382774,0.0370203746093163,0.35934521850194456,-1.740844878149188,0.4032376255918311,-1.8978472631224204,-0.6101736527540484,-0.7077035241225732,-0.6219504485872924,-2.7207645975100685,1.9035006854407732,-0.7747549409688457,6.891425632567304,4.974661417526738,25.350085469905977,134.85504336007085,-204.0600153117099,118.38918269856501,-0.289718247442388,-1.6358399513935487,1.9967197803724697,-1.7626773563850497,-1.1671377649225656,-0.03216380466983244,-1.4475218810806454,-0.8344864518717292,1.936134290265823,0.0021276457560593038,-3.219435132672331,-0.14480781656764796,-12.335181028127895,-25.16528567222956,-11.289450583051181,-52.064752867238404,162.87231588868252,-174.42221498903476,0.5,0.0,0.5,0.0,-0.0,0.0
0.2640000000000002,0.45362363254862725,0.03559940043139492,0.3581141178298416,-1.7428278451675463,0.3968120970320532,-1.9001716556422035,-0.6197688473893539,-0.7087496442309401,-0.6147890895601416,-2.7432513979664703,1.9042986400031214,-0.7724362931961185,6.9843517332732175,5.06090806527752,25.422400960173256,135.7892927268379,-204.26690484723238,118.8532223078127,-0.29263251345346175,-1.637553818449109,2.0006056717430907,-1.7626732495029307,-1.1736301360771841,-0.03245376414233148,-1.4571330055368814,-0.8569335277801857,1.9429456853105622,0.0020534410594824615,-3.2461855773092365,-0.14497973624952443,-12.323699410840378,-25.3828547531887,-11.51513608891123,-51.79451256151487,163.8362045044801,-175.07171247091298,0.5,0.0,0.5,0.0,-0.0,0.0
